; G-Code generated by Simplify3D(R) Version 4.0.0
; Sep 4, 2017 at 9:17:11 AM
; Settings Summary
;   processName,Process1
;   applyToModels,DigitMount
;   profileName,Fast  (3 layers 20%) (modified)
;   profileVersion,2017-03-12 13:37:57
;   baseProfile,Printrbot Simple Metal (modified)
;   printMaterial,PLA
;   printQuality,High
;   printExtruders,
;   extruderName,Primary Extruder
;   extruderToolheadNumber,0
;   extruderDiameter,0.4
;   extruderAutoWidth,1
;   extruderWidth,0.48
;   extrusionMultiplier,0.85
;   extruderUseRetract,1
;   extruderRetractionDistance,1
;   extruderExtraRestartDistance,0
;   extruderRetractionZLift,0
;   extruderRetractionSpeed,1800
;   extruderUseCoasting,0
;   extruderCoastingDistance,0.4
;   extruderUseWipe,0
;   extruderWipeDistance,5
;   primaryExtruder,0
;   layerHeight,0.18
;   topSolidLayers,3
;   bottomSolidLayers,3
;   perimeterOutlines,3
;   printPerimetersInsideOut,0
;   startPointOption,1
;   startPointOriginX,0
;   startPointOriginY,0
;   sequentialIslands,0
;   spiralVaseMode,0
;   firstLayerHeightPercentage,100
;   firstLayerWidthPercentage,100
;   firstLayerUnderspeed,0.5
;   useRaft,0
;   raftExtruder,0
;   raftTopLayers,3
;   raftBaseLayers,2
;   raftOffset,3
;   raftSeparationDistance,0.14
;   raftTopInfill,100
;   aboveRaftSpeedMultiplier,0.3
;   useSkirt,1
;   skirtExtruder,0
;   skirtLayers,1
;   skirtOutlines,3
;   skirtOffset,4
;   usePrimePillar,0
;   primePillarExtruder,999
;   primePillarWidth,12
;   primePillarLocation,7
;   primePillarSpeedMultiplier,1
;   useOozeShield,0
;   oozeShieldExtruder,999
;   oozeShieldOffset,2
;   oozeShieldOutlines,1
;   oozeShieldSidewallShape,0
;   oozeShieldSidewallAngle,30
;   oozeShieldSpeedMultiplier,1
;   infillExtruder,0
;   internalInfillPattern,Fast Honeycomb
;   externalInfillPattern,Rectilinear
;   infillPercentage,20
;   outlineOverlapPercentage,25
;   infillExtrusionWidthPercentage,100
;   minInfillLength,5
;   infillLayerInterval,1
;   internalInfillAngles,0
;   overlapInternalInfillAngles,0
;   externalInfillAngles,45,-45
;   generateSupport,0
;   supportExtruder,0
;   supportInfillPercentage,40
;   supportExtraInflation,0
;   supportBaseLayers,0
;   denseSupportExtruder,0
;   denseSupportLayers,0
;   denseSupportInfillPercentage,70
;   supportLayerInterval,1
;   supportHorizontalPartOffset,0.3
;   supportUpperSeparationLayers,1
;   supportLowerSeparationLayers,1
;   supportType,0
;   supportGridSpacing,4
;   maxOverhangAngle,45
;   supportAngles,0
;   temperatureName,Primary Extruder,Heated Bed
;   temperatureNumber,0,1
;   temperatureSetpointCount,1,1
;   temperatureSetpointLayers,1,1
;   temperatureSetpointTemperatures,200,65
;   temperatureStabilizeAtStartup,1,1
;   temperatureHeatedBed,0,1
;   temperatureRelayBetweenLayers,0,0
;   temperatureRelayBetweenLoops,0,0
;   fanLayers,1,2
;   fanSpeeds,0,100
;   blipFanToFullPower,1
;   adjustSpeedForCooling,1
;   minSpeedLayerTime,15
;   minCoolingSpeedSlowdown,20
;   increaseFanForCooling,0
;   minFanLayerTime,45
;   maxCoolingFanSpeed,100
;   increaseFanForBridging,0
;   bridgingFanSpeed,100
;   use5D,1
;   relativeEdistances,0
;   allowEaxisZeroing,1
;   independentExtruderAxes,0
;   includeM10123,0
;   stickySupport,1
;   applyToolheadOffsets,0
;   gcodeXoffset,0
;   gcodeYoffset,0
;   gcodeZoffset,0
;   overrideMachineDefinition,1
;   machineTypeOverride,0
;   strokeXoverride,150
;   strokeYoverride,150
;   strokeZoverride,150
;   originOffsetXoverride,0
;   originOffsetYoverride,0
;   originOffsetZoverride,0
;   homeXdirOverride,-1
;   homeYdirOverride,-1
;   homeZdirOverride,-1
;   flipXoverride,1
;   flipYoverride,-1
;   flipZoverride,1
;   toolheadOffsets,0,0|0,0|0,0|0,0|0,0|0,0
;   overrideFirmwareConfiguration,1
;   firmwareTypeOverride,RepRap (Marlin/Repetier/Sprinter)
;   GPXconfigOverride,r2
;   baudRateOverride,250000
;   overridePrinterModels,1
;   printerModelsOverride
;   startingGcode,G28 X0 Y0 Z0 ; home X, Y and Z axes,G29 ; probe Z
;   layerChangeGcode,
;   retractionGcode,
;   toolChangeGcode,
;   endingGcode,M104 S0 T0 ; turn off extruder,M140 S0 T1 ; turn off bed,G28 X0 ; home X axis,M84 ; disable motors
;   exportFileFormat,gcode
;   celebration,0
;   celebrationSong,Star Wars
;   postProcessing,
;   defaultSpeed,3000
;   outlineUnderspeed,0.5
;   solidInfillUnderspeed,0.8
;   supportUnderspeed,0.8
;   rapidXYspeed,3600
;   rapidZspeed,1000
;   minBridgingArea,50
;   bridgingExtraInflation,0
;   bridgingExtrusionMultiplier,1
;   bridgingSpeedMultiplier,1
;   useFixedBridgingAngle,0
;   fixedBridgingAngle,0
;   applyBridgingToPerimeters,0
;   filamentDiameters,1.75|1.75|1.75|1.75|1.75|1.75
;   filamentPricesPerKg,30|30|30|30|30|30
;   filamentDensities,1.25|1.25|1.25|1.25|1.25|1.25
;   useMinPrintHeight,0
;   minPrintHeight,0
;   useMaxPrintHeight,0
;   maxPrintHeight,0
;   useDiaphragm,0
;   diaphragmLayerInterval,20
;   robustSlicing,1
;   mergeAllIntoSolid,0
;   onlyRetractWhenCrossingOutline,1
;   retractBetweenLayers,0
;   useRetractionMinTravel,0
;   retractionMinTravel,3
;   retractWhileWiping,0
;   onlyWipeOutlines,1
;   avoidCrossingOutline,1
;   maxMovementDetourFactor,3
;   toolChangeRetractionDistance,12
;   toolChangeExtraRestartDistance,-0.5
;   toolChangeRetractionSpeed,600
;   externalThinWallType,0
;   internalThinWallType,2
;   thinWallAllowedOverlapPercentage,30
;   singleExtrusionMinLength,1
;   singleExtrusionMinPrintingWidthPercentage,50
;   singleExtrusionMaxPrintingWidthPercentage,200
;   singleExtrusionEndpointExtension,0.2
;   horizontalSizeCompensation,0
G90
M82
M106 S255
G4 P500
M106 S0
M140 S65
M190 S65
M104 S200 T0
M109 S200 T0
G28 X0 Y0 Z0 ; home X
 Y and Z axes
G29 ; probe Z
G92 E0
G1 E-1.0000 F1800
G1 Z0.180 F1000
; process Process1
; layer 1, Z = 0.180
T0
; tool H0.180 W0.480
; skirt
G1 X25.983 Y16.663 F3600
G1 E0.0000 F540
G92 E0
G1 X28.663 Y13.983 E0.1158 F1500
G1 X29.104 Y13.800 E0.1303
G1 X38.896 Y13.800 E0.4293
G1 X39.337 Y13.983 E0.4439
G1 X42.017 Y16.663 E0.5596
G1 X42.200 Y17.104 E0.5742
G1 X42.200 Y64.700 E2.0274
G1 X107.800 Y64.700 E4.0304
G1 X107.800 Y17.104 E5.4836
G1 X107.983 Y16.663 E5.4982
G1 X110.663 Y13.983 E5.6139
G1 X111.104 Y13.800 E5.6285
G1 X120.896 Y13.800 E5.9274
G1 X121.337 Y13.983 E5.9420
G1 X124.017 Y16.663 E6.0578
G1 X124.200 Y17.104 E6.0723
G1 X124.200 Y132.896 E9.6078
G1 X124.017 Y133.337 E9.6223
G1 X121.337 Y136.017 E9.7381
G1 X120.896 Y136.200 E9.7527
G1 X111.104 Y136.200 E10.0516
G1 X110.663 Y136.017 E10.0662
G1 X107.983 Y133.337 E10.1820
G1 X107.800 Y132.896 E10.1965
G1 X107.800 Y85.300 E11.6498
G1 X42.200 Y85.300 E13.6527
G1 X42.200 Y132.896 E15.1059
G1 X42.017 Y133.337 E15.1205
G1 X39.337 Y136.017 E15.2363
G1 X38.896 Y136.200 E15.2508
G1 X29.104 Y136.200 E15.5498
G1 X28.663 Y136.017 E15.5644
G1 X25.983 Y133.337 E15.6801
G1 X25.800 Y132.896 E15.6947
G1 X25.800 Y17.104 E19.2301
G1 X25.983 Y16.663 E19.2447
G1 X26.390 Y16.935 F3600
G92 E0
G1 X28.935 Y14.390 E0.1099 F1500
G1 X29.200 Y14.280 E0.1187
G1 X38.800 Y14.280 E0.4118
G1 X39.065 Y14.390 E0.4205
G1 X41.610 Y16.935 E0.5305
G1 X41.720 Y17.200 E0.5392
G1 X41.720 Y65.180 E2.0042
G1 X108.280 Y65.180 E4.0364
G1 X108.280 Y17.200 E5.5014
G1 X108.390 Y16.935 E5.5101
G1 X110.935 Y14.390 E5.6201
G1 X111.200 Y14.280 E5.6288
G1 X120.800 Y14.280 E5.9219
G1 X121.065 Y14.390 E5.9307
G1 X123.610 Y16.935 E6.0406
G1 X123.720 Y17.200 E6.0493
G1 X123.720 Y132.800 E9.5789
G1 X123.610 Y133.065 E9.5877
G1 X121.065 Y135.610 E9.6976
G1 X120.800 Y135.720 E9.7064
G1 X111.200 Y135.720 E9.9995
G1 X110.935 Y135.610 E10.0082
G1 X108.390 Y133.065 E10.1181
G1 X108.280 Y132.800 E10.1269
G1 X108.280 Y84.820 E11.5919
G1 X41.720 Y84.820 E13.6241
G1 X41.720 Y132.800 E15.0891
G1 X41.610 Y133.065 E15.0978
G1 X39.065 Y135.610 E15.2078
G1 X38.800 Y135.720 E15.2165
G1 X29.200 Y135.720 E15.5096
G1 X28.935 Y135.610 E15.5184
G1 X26.390 Y133.065 E15.6283
G1 X26.280 Y132.800 E15.6370
G1 X26.280 Y17.200 E19.1666
G1 X26.390 Y16.935 E19.1754
G1 X26.797 Y17.207 F3600
G92 E0
G1 X29.207 Y14.797 E0.1041 F1500
G1 X29.295 Y14.760 E0.1070
G1 X38.705 Y14.760 E0.3943
G1 X38.793 Y14.797 E0.3972
G1 X41.203 Y17.207 E0.5013
G1 X41.240 Y17.295 E0.5042
G1 X41.240 Y65.660 E1.9809
G1 X108.760 Y65.660 E4.0425
G1 X108.760 Y17.295 E5.5192
G1 X108.797 Y17.207 E5.5221
G1 X111.207 Y14.797 E5.6262
G1 X111.295 Y14.760 E5.6291
G1 X120.705 Y14.760 E5.9164
G1 X120.793 Y14.797 E5.9193
G1 X123.203 Y17.207 E6.0234
G1 X123.240 Y17.295 E6.0263
G1 X123.240 Y132.705 E9.5501
G1 X123.203 Y132.793 E9.5530
G1 X120.793 Y135.203 E9.6571
G1 X120.705 Y135.240 E9.6600
G1 X111.295 Y135.240 E9.9473
G1 X111.207 Y135.203 E9.9502
G1 X108.797 Y132.793 E10.0543
G1 X108.760 Y132.705 E10.0572
G1 X108.760 Y84.340 E11.5339
G1 X41.240 Y84.340 E13.5955
G1 X41.240 Y132.705 E15.0722
G1 X41.203 Y132.793 E15.0751
G1 X38.793 Y135.203 E15.1792
G1 X38.705 Y135.240 E15.1822
G1 X29.295 Y135.240 E15.4694
G1 X29.207 Y135.203 E15.4724
G1 X26.797 Y132.793 E15.5764
G1 X26.760 Y132.705 E15.5794
G1 X26.760 Y17.295 E19.1031
G1 X26.797 Y17.207 E19.1060
G92 E0
G1 E-1.0000 F1800
; outer perimeter
G1 X31.235 Y19.235 F3600
G1 X36.765 Y19.235 F3600
G1 X36.765 Y70.135 F3600
G1 X113.235 Y70.135 F3600
G1 X113.235 Y19.235 F3600
G1 X118.542 Y19.235 F3600
G1 X118.760 Y19.240 F3600
G1 E0.0000 F1800
G92 E0
G1 X118.760 Y130.760 E3.4050 F750
G1 X113.240 Y130.760 E3.5736
G1 X113.240 Y79.860 E5.1277
G1 X36.760 Y79.860 E7.4628
G1 X36.760 Y130.760 E9.0169
G1 X31.240 Y130.760 E9.1855
G1 X31.240 Y19.240 E12.5905
G1 X36.760 Y19.240 E12.7590
G1 X36.760 Y70.140 E14.3132
G1 X113.240 Y70.140 E16.6483
G1 X113.240 Y19.240 E18.2024
G1 X118.760 Y19.240 E18.3710
; inner perimeter
G1 X118.280 Y130.280 F3600
G92 E0
G1 X113.720 Y130.280 E0.1392 F1125
G1 X113.720 Y79.380 E1.6933
G1 X36.280 Y79.380 E4.0578
G1 X36.280 Y130.280 E5.6119
G1 X31.720 Y130.280 E5.7512
G1 X31.720 Y19.720 E9.1269
G1 X36.280 Y19.720 E9.2661
G1 X36.280 Y70.620 E10.8202
G1 X113.720 Y70.620 E13.1847
G1 X113.720 Y19.720 E14.7388
G1 X118.280 Y19.720 E14.8780
G1 X118.280 Y130.280 E18.2537
G1 X115.468 Y71.141 F3600
G92 E0
G1 X115.925 Y71.205 E0.0141 F1125
G1 X116.363 Y71.174 E0.0275
G1 X116.682 Y71.095 E0.0375
G1 X116.987 Y70.971 E0.0476
G1 X117.360 Y70.738 E0.0610
G1 X117.595 Y70.510 E0.0710
G1 X117.800 Y70.597 E0.0778
G1 X117.800 Y129.800 E1.8854
G1 X114.200 Y129.800 E1.9954
G1 X114.200 Y78.900 E3.5495
G1 X35.800 Y78.900 E5.9433
G1 X35.800 Y95.903 E6.4624
G1 X35.595 Y95.990 E6.4692
G1 X35.357 Y95.760 E6.4793
G1 X34.966 Y95.516 E6.4934
G1 X34.532 Y95.359 E6.5075
G1 X34.075 Y95.295 E6.5215
G1 X33.637 Y95.326 E6.5350
G1 X33.297 Y95.410 E6.5457
G1 X32.895 Y95.590 E6.5591
G1 X32.523 Y95.861 E6.5732
G1 X32.416 Y95.980 E6.5781
G1 X32.200 Y95.897 E6.5851
G1 X32.200 Y32.097 E8.5331
G1 X32.405 Y32.010 E8.5399
G1 X32.643 Y32.240 E8.5500
G1 X33.016 Y32.473 E8.5634
G1 X33.340 Y32.604 E8.5741
G1 X33.771 Y32.695 E8.5875
G1 X34.232 Y32.694 E8.6016
G1 X34.663 Y32.603 E8.6151
G1 X34.987 Y32.471 E8.6257
G1 X35.360 Y32.238 E8.6392
G1 X35.595 Y32.010 E8.6492
G1 X35.800 Y32.097 E8.6560
G1 X35.800 Y71.100 E9.8468
G1 X114.200 Y71.100 E12.2406
G1 X114.200 Y70.597 E12.2560
G1 X114.405 Y70.510 E12.2628
G1 X114.642 Y70.740 E12.2728
G1 X115.034 Y70.984 E12.2869
G1 X115.468 Y71.141 E12.3010
G1 X115.085 Y69.826 F3600
G1 X115.053 Y69.795 F3600
G1 X114.911 Y69.584 F3600
G1 X114.840 Y69.426 F3600
G1 X114.810 Y69.333 F3600
G1 X114.766 Y69.086 F3600
G1 X114.775 Y68.832 F3600
G1 X114.784 Y68.792 F3600
G1 X114.405 Y67.490 F3600
G92 E0
G1 X114.200 Y67.403 E0.0068 F1125
G1 X114.200 Y20.200 E1.4480
G1 X117.800 Y20.200 E1.5579
G1 X117.800 Y67.403 E2.9992
G1 X117.595 Y67.490 E3.0060
G1 X117.373 Y67.275 E3.0154
G1 X117.083 Y67.080 E3.0261
G1 X116.700 Y66.909 E3.0389
G1 X116.360 Y66.825 E3.0496
G1 X115.922 Y66.795 E3.0630
G1 X115.465 Y66.859 E3.0771
G1 X115.031 Y67.017 E3.0912
G1 X114.640 Y67.262 E3.1053
G1 X114.405 Y67.490 E3.1153
G1 X113.235 Y67.960 F3600
G1 X113.235 Y70.135 F3600
G1 X107.828 Y70.135 F3600
G1 X83.639 Y79.865 F3600
G1 X36.765 Y79.865 F3600
G1 X36.765 Y98.720 F3600
G1 X35.800 Y99.108 F3600
G92 E0
G1 X35.800 Y129.800 E0.9371 F1125
G1 X32.200 Y129.800 E1.0470
G1 X32.200 Y99.097 E1.9845
G1 X32.405 Y99.010 E1.9913
G1 X32.643 Y99.240 E2.0014
G1 X33.034 Y99.484 E2.0155
G1 X33.468 Y99.641 E2.0295
G1 X33.925 Y99.705 E2.0436
G1 X34.363 Y99.674 E2.0571
G1 X34.703 Y99.590 E2.0677
G1 X35.066 Y99.427 E2.0799
G1 X35.266 Y99.302 E2.0871
G1 X35.606 Y99.017 E2.1006
G1 X35.800 Y99.108 E2.1072
G1 X35.595 Y28.990 F3600
G92 E0
G1 X35.357 Y28.760 E0.0101 F1125
G1 X34.984 Y28.527 E0.0235
G1 X34.660 Y28.396 E0.0342
G1 X34.271 Y28.314 E0.0463
G1 X34.056 Y28.299 E0.0529
G1 X33.747 Y28.310 E0.0624
G1 X33.317 Y28.402 E0.0758
G1 X32.895 Y28.590 E0.0899
G1 X32.523 Y28.861 E0.1040
G1 X32.416 Y28.980 E0.1088
G1 X32.200 Y28.897 E0.1159
G1 X32.200 Y20.200 E0.3814
G1 X35.800 Y20.200 E0.4914
G1 X35.800 Y28.903 E0.7571
G1 X35.595 Y28.990 E0.7639
; outer perimeter
G1 X35.233 Y30.510 F3600
G1 X35.233 Y30.590 F3600
G1 X35.189 Y30.841 F3600
G1 X35.103 Y31.051 F3600
G1 X35.096 Y31.083 F3600
G92 E0
G1 X35.193 Y30.842 E0.0079 F750
G1 X35.238 Y30.591 E0.0157
G1 X35.238 Y30.409 E0.0213
G1 X35.193 Y30.158 E0.0291
G1 X35.096 Y29.917 E0.0370
G1 X34.951 Y29.702 E0.0449
G1 X34.764 Y29.521 E0.0529
G1 X34.547 Y29.386 E0.0606
G1 X34.379 Y29.318 E0.0662
G1 X34.137 Y29.267 E0.0737
G1 X34.039 Y29.260 E0.0767
G1 X33.865 Y29.266 E0.0820
G1 X33.616 Y29.320 E0.0898
G1 X33.379 Y29.425 E0.0978
G1 X33.169 Y29.578 E0.1057
G1 X32.999 Y29.767 E0.1134
G1 X32.902 Y29.921 E0.1190
G1 X32.807 Y30.158 E0.1268
G1 X32.762 Y30.409 E0.1346
G1 X32.762 Y30.591 E0.1401
G1 X32.807 Y30.842 E0.1479
G1 X32.904 Y31.083 E0.1558
G1 X33.049 Y31.298 E0.1638
G1 X33.236 Y31.479 E0.1717
G1 X33.453 Y31.614 E0.1795
G1 X33.621 Y31.682 E0.1850
G1 X33.871 Y31.735 E0.1928
G1 X34.131 Y31.734 E0.2008
G1 X34.380 Y31.681 E0.2086
G1 X34.549 Y31.613 E0.2141
G1 X34.765 Y31.478 E0.2219
G1 X34.951 Y31.298 E0.2298
G1 X35.096 Y31.083 E0.2377
; inner perimeter
G1 X35.089 Y31.084 F3600
G1 X34.947 Y31.295 F3600
G1 X34.762 Y31.474 F3600
G1 X34.546 Y31.609 F3600
G1 X34.379 Y31.677 F3600
G1 X34.130 Y31.730 F3600
G1 X33.872 Y31.730 F3600
G1 X33.623 Y31.677 F3600
G1 X33.455 Y31.610 F3600
G1 X33.253 Y31.484 F3600
G1 X32.679 Y31.608 F3600
G92 E0
G1 X32.940 Y31.859 E0.0110 F1125
G1 X33.235 Y32.043 E0.0216
G1 X33.481 Y32.143 E0.0298
G1 X33.821 Y32.215 E0.0404
G1 X34.181 Y32.214 E0.0514
G1 X34.521 Y32.142 E0.0620
G1 X34.768 Y32.042 E0.0701
G1 X35.062 Y31.858 E0.0807
G1 X35.321 Y31.608 E0.0917
G1 X35.522 Y31.309 E0.1027
G1 X35.657 Y30.975 E0.1137
G1 X35.718 Y30.633 E0.1243
G1 X35.718 Y30.367 E0.1324
G1 X35.657 Y30.025 E0.1430
G1 X35.522 Y29.691 E0.1540
G1 X35.321 Y29.392 E0.1650
G1 X35.060 Y29.141 E0.1761
G1 X34.765 Y28.957 E0.1867
G1 X34.519 Y28.857 E0.1948
G1 X34.204 Y28.791 E0.2046
G1 X34.047 Y28.780 E0.2094
G1 X33.806 Y28.788 E0.2168
G1 X33.466 Y28.861 E0.2274
G1 X33.137 Y29.008 E0.2384
G1 X32.846 Y29.220 E0.2494
G1 X32.614 Y29.477 E0.2600
G1 X32.473 Y29.702 E0.2681
G1 X32.343 Y30.025 E0.2787
G1 X32.282 Y30.367 E0.2894
G1 X32.282 Y30.633 E0.2975
G1 X32.343 Y30.975 E0.3081
G1 X32.478 Y31.309 E0.3191
G1 X32.679 Y31.608 E0.3301
; outer perimeter
G1 X36.765 Y45.224 F3600
G1 X36.765 Y70.135 F3600
G1 X44.240 Y70.135 F3600
G1 X45.116 Y73.058 F3600
G92 E0
G1 X44.831 Y72.919 E0.0097 F750
G1 X44.385 Y72.792 E0.0239
G1 X43.917 Y72.760 E0.0382
G1 X43.457 Y72.826 E0.0523
G1 X43.152 Y72.926 E0.0621
G1 X42.743 Y73.144 E0.0763
G1 X42.388 Y73.443 E0.0905
G1 X42.099 Y73.812 E0.1048
G1 X41.894 Y74.233 E0.1191
G1 X41.780 Y74.688 E0.1334
G1 X41.764 Y75.152 E0.1476
G1 X41.809 Y75.470 E0.1574
G1 X41.952 Y75.912 E0.1716
G1 X42.185 Y76.314 E0.1857
G1 X42.394 Y76.563 E0.1957
G1 X42.751 Y76.861 E0.2099
G1 X43.161 Y77.078 E0.2240
G1 X43.467 Y77.176 E0.2338
G1 X43.926 Y77.240 E0.2480
G1 X44.394 Y77.206 E0.2623
G1 X44.844 Y77.076 E0.2766
G1 X45.257 Y76.855 E0.2909
G1 X45.612 Y76.557 E0.3051
G1 X45.898 Y76.191 E0.3193
G1 X46.049 Y75.908 E0.3291
G1 X46.192 Y75.466 E0.3432
G1 X46.241 Y75.000 E0.3576
G1 X46.192 Y74.534 E0.3719
G1 X46.048 Y74.088 E0.3862
