; G-Code generated by Simplify3D(R) Version 4.0.0
; Sep 4, 2017 at 12:21:00 PM
; Settings Summary
;   processName,Process1
;   applyToModels,DigitMount-1
;   profileName,camwatt settings
;   profileVersion,2017-05-14 09:40:51
;   baseProfile,Printrbot Simple Metal
;   printMaterial,PLA
;   printQuality,Medium
;   printExtruders,
;   extruderName,Primary Extruder
;   extruderToolheadNumber,0
;   extruderDiameter,0.4
;   extruderAutoWidth,1
;   extruderWidth,0.48
;   extrusionMultiplier,0.9
;   extruderUseRetract,1
;   extruderRetractionDistance,2
;   extruderExtraRestartDistance,0
;   extruderRetractionZLift,0.25
;   extruderRetractionSpeed,2400
;   extruderUseCoasting,0
;   extruderCoastingDistance,0.2
;   extruderUseWipe,0
;   extruderWipeDistance,5
;   primaryExtruder,0
;   layerHeight,0.15
;   topSolidLayers,7
;   bottomSolidLayers,6
;   perimeterOutlines,3
;   printPerimetersInsideOut,0
;   startPointOption,2
;   startPointOriginX,0
;   startPointOriginY,0
;   sequentialIslands,0
;   spiralVaseMode,0
;   firstLayerHeightPercentage,167
;   firstLayerWidthPercentage,120
;   firstLayerUnderspeed,0.2
;   useRaft,0
;   raftExtruder,0
;   raftTopLayers,3
;   raftBaseLayers,2
;   raftOffset,3
;   raftSeparationDistance,0.14
;   raftTopInfill,100
;   aboveRaftSpeedMultiplier,0.3
;   useSkirt,1
;   skirtExtruder,0
;   skirtLayers,1
;   skirtOutlines,3
;   skirtOffset,4
;   usePrimePillar,0
;   primePillarExtruder,999
;   primePillarWidth,12
;   primePillarLocation,7
;   primePillarSpeedMultiplier,1
;   useOozeShield,0
;   oozeShieldExtruder,999
;   oozeShieldOffset,2
;   oozeShieldOutlines,1
;   oozeShieldSidewallShape,1
;   oozeShieldSidewallAngle,30
;   oozeShieldSpeedMultiplier,1
;   infillExtruder,0
;   internalInfillPattern,Fast Honeycomb
;   externalInfillPattern,Rectilinear
;   infillPercentage,20
;   outlineOverlapPercentage,20
;   infillExtrusionWidthPercentage,100
;   minInfillLength,5
;   infillLayerInterval,1
;   internalInfillAngles,0
;   overlapInternalInfillAngles,0
;   externalInfillAngles,45,-45
;   generateSupport,0
;   supportExtruder,0
;   supportInfillPercentage,30
;   supportExtraInflation,0
;   supportBaseLayers,0
;   denseSupportExtruder,0
;   denseSupportLayers,0
;   denseSupportInfillPercentage,70
;   supportLayerInterval,1
;   supportHorizontalPartOffset,0.3
;   supportUpperSeparationLayers,1
;   supportLowerSeparationLayers,1
;   supportType,0
;   supportGridSpacing,4
;   maxOverhangAngle,45
;   supportAngles,0
;   temperatureName,Primary Extruder,Heated Bed
;   temperatureNumber,0,1
;   temperatureSetpointCount,2,1
;   temperatureSetpointLayers,1,2,1
;   temperatureSetpointTemperatures,197,200,65
;   temperatureStabilizeAtStartup,1,1
;   temperatureHeatedBed,0,1
;   temperatureRelayBetweenLayers,0,0
;   temperatureRelayBetweenLoops,0,0
;   fanLayers,1,2
;   fanSpeeds,0,100
;   blipFanToFullPower,1
;   adjustSpeedForCooling,1
;   minSpeedLayerTime,15
;   minCoolingSpeedSlowdown,20
;   increaseFanForCooling,0
;   minFanLayerTime,45
;   maxCoolingFanSpeed,100
;   increaseFanForBridging,0
;   bridgingFanSpeed,100
;   use5D,1
;   relativeEdistances,0
;   allowEaxisZeroing,1
;   independentExtruderAxes,0
;   includeM10123,0
;   stickySupport,1
;   applyToolheadOffsets,0
;   gcodeXoffset,0
;   gcodeYoffset,0
;   gcodeZoffset,0
;   overrideMachineDefinition,1
;   machineTypeOverride,0
;   strokeXoverride,150
;   strokeYoverride,150
;   strokeZoverride,150
;   originOffsetXoverride,0
;   originOffsetYoverride,0
;   originOffsetZoverride,0
;   homeXdirOverride,-1
;   homeYdirOverride,-1
;   homeZdirOverride,-1
;   flipXoverride,1
;   flipYoverride,-1
;   flipZoverride,1
;   toolheadOffsets,0,0|0,0|0,0|0,0|0,0|0,0
;   overrideFirmwareConfiguration,1
;   firmwareTypeOverride,RepRap (Marlin/Repetier/Sprinter)
;   GPXconfigOverride,r2
;   baudRateOverride,250000
;   overridePrinterModels,1
;   printerModelsOverride
;   startingGcode,G28 X0 Y0 Z0 ; home X and Y, Z axes,G29 ; probe Z
;   layerChangeGcode,
;   retractionGcode,
;   toolChangeGcode,
;   endingGcode,M104 S0 T0 ; turn off extruder,M140 S0 T1 ; turn off bed,G28 Y0 ; home Y axis,M84 ; disable motors
;   exportFileFormat,gcode
;   celebration,0
;   celebrationSong,Star Wars
;   postProcessing,
;   defaultSpeed,1800
;   outlineUnderspeed,0.5
;   solidInfillUnderspeed,0.8
;   supportUnderspeed,0.8
;   rapidXYspeed,3600
;   rapidZspeed,1000
;   minBridgingArea,50
;   bridgingExtraInflation,0
;   bridgingExtrusionMultiplier,1
;   bridgingSpeedMultiplier,1
;   useFixedBridgingAngle,0
;   fixedBridgingAngle,0
;   applyBridgingToPerimeters,0
;   filamentDiameters,1.75|1.75|1.75|1.75|1.75|1.75
;   filamentPricesPerKg,46|46|46|46|46|46
;   filamentDensities,1.25|1.25|1.25|1.25|1.25|1.25
;   useMinPrintHeight,0
;   minPrintHeight,0
;   useMaxPrintHeight,0
;   maxPrintHeight,0
;   useDiaphragm,0
;   diaphragmLayerInterval,20
;   robustSlicing,1
;   mergeAllIntoSolid,0
;   onlyRetractWhenCrossingOutline,1
;   retractBetweenLayers,0
;   useRetractionMinTravel,1
;   retractionMinTravel,2
;   retractWhileWiping,0
;   onlyWipeOutlines,0
;   avoidCrossingOutline,1
;   maxMovementDetourFactor,3
;   toolChangeRetractionDistance,12
;   toolChangeExtraRestartDistance,-0.5
;   toolChangeRetractionSpeed,600
;   externalThinWallType,0
;   internalThinWallType,2
;   thinWallAllowedOverlapPercentage,10
;   singleExtrusionMinLength,1
;   singleExtrusionMinPrintingWidthPercentage,50
;   singleExtrusionMaxPrintingWidthPercentage,200
;   singleExtrusionEndpointExtension,0.2
;   horizontalSizeCompensation,0
G90
M82
M106 S255
G4 P500
M106 S0
M140 S65
M190 S65
M104 S197 T0
M109 S197 T0
G28 X0 Y0 Z0 ; home X and Y
 Z axes
G29 ; probe Z
G92 E0
G1 E-2.0000 F2400
G1 Z0.500 F1000
; process Process1
; layer 1, Z = 0.251
T0
; tool H0.250 W0.576
; skirt
G1 X25.683 Y16.663 F3600
G1 Z0.250 F1000
G1 E0.0000 F720
G92 E0
G1 X28.363 Y13.983 E0.2047 F360
G1 X28.804 Y13.800 E0.2305
G1 X39.196 Y13.800 E0.7915
G1 X39.637 Y13.983 E0.8172
G1 X42.317 Y16.663 E1.0219
G1 X42.500 Y17.104 E1.0477
G1 X42.500 Y64.700 E3.6173
G1 X107.500 Y64.700 E7.1266
G1 X107.500 Y17.104 E9.6963
G1 X107.683 Y16.663 E9.7220
G1 X110.363 Y13.983 E9.9267
G1 X110.804 Y13.800 E9.9525
G1 X121.196 Y13.800 E10.5135
G1 X121.637 Y13.983 E10.5393
G1 X124.317 Y16.663 E10.7440
G1 X124.500 Y17.104 E10.7697
G1 X124.500 Y132.896 E17.0212
G1 X124.317 Y133.337 E17.0470
G1 X121.637 Y136.017 E17.2516
G1 X121.196 Y136.200 E17.2774
G1 X110.804 Y136.200 E17.8384
G1 X110.363 Y136.017 E17.8642
G1 X107.683 Y133.337 E18.0689
G1 X107.500 Y132.896 E18.0947
G1 X107.500 Y85.300 E20.6643
G1 X42.500 Y85.300 E24.1736
G1 X42.500 Y132.896 E26.7432
G1 X42.317 Y133.337 E26.7690
G1 X39.637 Y136.017 E26.9737
G1 X39.196 Y136.200 E26.9995
G1 X28.804 Y136.200 E27.5605
G1 X28.363 Y136.017 E27.5863
G1 X25.683 Y133.337 E27.7909
G1 X25.500 Y132.896 E27.8167
G1 X25.500 Y17.104 E34.0682
G1 X25.683 Y16.663 E34.0939
G1 X26.090 Y16.935 F3600
G92 E0
G1 X28.635 Y14.390 E0.1944 F360
G1 X28.900 Y14.280 E0.2098
G1 X39.100 Y14.280 E0.7605
G1 X39.365 Y14.390 E0.7760
G1 X41.910 Y16.935 E0.9704
G1 X42.020 Y17.200 E0.9858
G1 X42.020 Y65.180 E3.5762
G1 X107.980 Y65.180 E7.1374
G1 X107.980 Y17.200 E9.7278
G1 X108.090 Y16.935 E9.7432
G1 X110.635 Y14.390 E9.9376
G1 X110.900 Y14.280 E9.9531
G1 X121.100 Y14.280 E10.5038
G1 X121.365 Y14.390 E10.5192
G1 X123.910 Y16.935 E10.7136
G1 X124.020 Y17.200 E10.7291
G1 X124.020 Y132.800 E16.9702
G1 X123.910 Y133.065 E16.9857
G1 X121.365 Y135.610 E17.1800
G1 X121.100 Y135.720 E17.1955
G1 X110.900 Y135.720 E17.7462
G1 X110.635 Y135.610 E17.7617
G1 X108.090 Y133.065 E17.9560
G1 X107.980 Y132.800 E17.9715
G1 X107.980 Y84.820 E20.5619
G1 X42.020 Y84.820 E24.1230
G1 X42.020 Y132.800 E26.7134
G1 X41.910 Y133.065 E26.7289
G1 X39.365 Y135.610 E26.9233
G1 X39.100 Y135.720 E26.9387
G1 X28.900 Y135.720 E27.4894
G1 X28.635 Y135.610 E27.5049
G1 X26.090 Y133.065 E27.6993
G1 X25.980 Y132.800 E27.7147
G1 X25.980 Y17.200 E33.9559
G1 X26.090 Y16.935 E33.9714
G1 X26.497 Y17.207 F3600
G92 E0
G1 X28.907 Y14.797 E0.1841 F360
G1 X28.995 Y14.760 E0.1892
G1 X39.005 Y14.760 E0.7296
G1 X39.093 Y14.797 E0.7348
G1 X41.503 Y17.207 E0.9188
G1 X41.540 Y17.295 E0.9240
G1 X41.540 Y65.660 E3.5351
G1 X108.460 Y65.660 E7.1481
G1 X108.460 Y17.295 E9.7593
G1 X108.497 Y17.207 E9.7644
G1 X110.907 Y14.797 E9.9485
G1 X110.995 Y14.760 E9.9536
G1 X121.005 Y14.760 E10.4940
G1 X121.093 Y14.797 E10.4992
G1 X123.503 Y17.207 E10.6832
G1 X123.540 Y17.295 E10.6884
G1 X123.540 Y132.705 E16.9192
G1 X123.503 Y132.793 E16.9244
G1 X121.093 Y135.203 E17.1084
G1 X121.005 Y135.240 E17.1136
G1 X110.995 Y135.240 E17.6540
G1 X110.907 Y135.203 E17.6591
G1 X108.497 Y132.793 E17.8432
G1 X108.460 Y132.705 E17.8484
G1 X108.460 Y84.340 E20.4595
G1 X41.540 Y84.340 E24.0725
G1 X41.540 Y132.705 E26.6836
G1 X41.503 Y132.793 E26.6888
G1 X39.093 Y135.203 E26.8729
G1 X39.005 Y135.240 E26.8780
G1 X28.995 Y135.240 E27.4184
G1 X28.907 Y135.203 E27.4236
G1 X26.497 Y132.793 E27.6076
G1 X26.460 Y132.705 E27.6128
G1 X26.460 Y17.295 E33.8436
G1 X26.497 Y17.207 E33.8488
G92 E0
G1 E-2.0000 F2400
G1 Z0.500 F1000
; outer perimeter
G1 X30.982 Y19.282 F3600
G1 X30.982 Y19.285 F3600
G1 X30.988 Y19.288 F3600
G1 Z0.250 F1000
G1 E0.0000 F2400
G92 E0
G1 X37.012 Y19.288 E0.3252 F180
G1 X37.012 Y70.188 E3.0733
G1 X112.988 Y70.188 E7.1752
G1 X112.988 Y19.288 E9.9232
G1 X119.012 Y19.288 E10.2484
G1 X119.012 Y130.712 E16.2641
G1 X112.988 Y130.712 E16.5894
G1 X112.988 Y79.812 E19.3374
G1 X37.012 Y79.812 E23.4393
G1 X37.012 Y130.712 E26.1873
G1 X30.988 Y130.712 E26.5126
G1 X30.988 Y19.288 E32.5283
; inner perimeter
G1 X31.564 Y19.864 F3600
G92 E0
G1 X36.436 Y19.864 E0.2630 F270
G1 X36.436 Y29.239 E0.7692
G1 X36.051 Y29.342 E0.7907
G1 X35.925 Y29.123 E0.8043
G1 X35.694 Y28.846 E0.8238
G1 X35.325 Y28.536 E0.8498
G1 X34.887 Y28.304 E0.8766
G1 X34.426 Y28.171 E0.9025
G1 X34.096 Y28.137 E0.9204
G1 X33.902 Y28.137 E0.9308
G1 X33.574 Y28.171 E0.9487
G1 X33.113 Y28.304 E0.9746
G1 X32.675 Y28.536 E1.0013
G1 X32.296 Y28.854 E1.0280
G1 X31.914 Y29.344 E1.0616
G1 X31.564 Y29.223 E1.0815
G1 X31.564 Y19.864 E1.5869
G1 X31.931 Y31.645 F3600
G92 E0
G1 X32.176 Y32.008 E0.0236 F270
G1 X32.416 Y32.258 E0.0424
G1 X32.689 Y32.471 E0.0610
G1 X33.113 Y32.696 E0.0870
G1 X33.589 Y32.833 E0.1137
G1 X34.067 Y32.866 E0.1396
G1 X34.426 Y32.829 E0.1591
G1 X34.887 Y32.696 E0.1850
G1 X35.325 Y32.464 E0.2117
G1 X35.704 Y32.146 E0.2384
G1 X36.086 Y31.656 E0.2720
G1 X36.436 Y31.777 E0.2919
G1 X36.436 Y70.764 E2.3968
G1 X113.564 Y70.764 E6.5609
G1 X113.564 Y70.257 E6.5883
G1 X113.931 Y70.145 E6.6090
G1 X114.186 Y70.523 E6.6336
G1 X114.543 Y70.868 E6.6604
G1 X114.951 Y71.122 E6.6863
G1 X115.285 Y71.257 E6.7058
G1 X115.755 Y71.356 E6.7317
G1 X116.250 Y71.356 E6.7584
G1 X116.734 Y71.252 E6.7852
G1 X117.186 Y71.050 E6.8119
G1 X117.586 Y70.759 E6.8386
G1 X117.916 Y70.392 E6.8653
G1 X118.052 Y70.158 E6.8799
G1 X118.436 Y70.261 E6.9014
G1 X118.436 Y130.136 E10.1340
G1 X113.564 Y130.136 E10.3970
G1 X113.564 Y79.236 E13.1451
G1 X36.436 Y79.236 E17.3091
G1 X36.436 Y96.224 E18.2263
G1 X36.087 Y96.344 E18.2462
G1 X35.702 Y95.853 E18.2799
G1 X35.323 Y95.535 E18.3066
G1 X34.898 Y95.310 E18.3326
G1 X34.585 Y95.209 E18.3503
G1 X34.396 Y95.168 E18.3608
G1 X34.065 Y95.134 E18.3787
G1 X33.586 Y95.168 E18.4047
G1 X33.111 Y95.305 E18.4314
G1 X32.674 Y95.537 E18.4581
G1 X32.296 Y95.855 E18.4847
G1 X31.914 Y96.344 E18.5183
G1 X31.564 Y96.224 E18.5382
G1 X31.564 Y31.757 E22.0187
G1 X31.931 Y31.645 E22.0394
G1 X31.913 Y98.656 F3600
G92 E0
G1 X32.298 Y99.147 E0.0337 F270
G1 X32.677 Y99.465 E0.0604
G1 X33.101 Y99.690 E0.0863
G1 X33.444 Y99.801 E0.1058
G1 X33.920 Y99.867 E0.1317
G1 X34.414 Y99.832 E0.1584
G1 X34.889 Y99.695 E0.1852
G1 X35.326 Y99.463 E0.2119
G1 X35.704 Y99.145 E0.2385
G1 X36.086 Y98.656 E0.2720
G1 X36.436 Y98.776 E0.2920
G1 X36.436 Y130.136 E1.9851
G1 X31.564 Y130.136 E2.2481
G1 X31.564 Y98.776 E3.9412
G1 X31.913 Y98.656 E3.9611
G1 X32.485 Y98.440 F3600
G1 X32.487 Y98.445 F3600
G1 X32.718 Y98.740 F3600
G1 X33.004 Y98.980 F3600
G1 X33.329 Y99.152 F3600
G1 X33.575 Y99.232 F3600
G1 X33.939 Y99.283 F3600
G1 X34.311 Y99.256 F3600
G1 X34.670 Y99.153 F3600
G1 X34.999 Y98.978 F3600
G1 X35.283 Y98.739 F3600
G1 X35.510 Y98.449 F3600
G1 X35.631 Y98.221 F3600
G1 X35.743 Y97.876 F3600
G1 X35.779 Y97.619 F3600
G1 X35.766 Y97.252 F3600
G1 X35.754 Y97.202 F3600
G1 X37.018 Y96.724 F3600
G1 X37.018 Y79.818 F3600
G1 X81.670 Y79.818 F3600
G1 X107.120 Y70.182 F3600
G1 X112.982 Y70.182 F3600
G1 X112.982 Y67.963 F3600
G1 X113.564 Y67.743 F3600
G92 E0
G1 X113.564 Y19.864 E2.5849 F270
G1 X118.436 Y19.864 E2.8480
G1 X118.436 Y67.728 E5.4321
G1 X118.078 Y67.844 E5.4524
G1 X117.803 Y67.467 E5.4776
G1 X117.457 Y67.132 E5.5036
G1 X117.049 Y66.878 E5.5296
G1 X116.715 Y66.743 E5.5490
G1 X116.245 Y66.644 E5.5749
G1 X115.750 Y66.644 E5.6017
G1 X115.281 Y66.745 E5.6276
G1 X114.947 Y66.880 E5.6470
G1 X114.540 Y67.135 E5.6729
G1 X114.185 Y67.478 E5.6996
G1 X113.931 Y67.855 E5.7241
G1 X113.564 Y67.743 E5.7449
G1 X114.140 Y66.390 F3600
G92 E0
G1 X114.140 Y20.440 E2.4808 F270
G1 X117.860 Y20.440 E2.6817
G1 X117.860 Y66.390 E5.1625
G1 X117.593 Y66.538 E5.1790
G1 X117.311 Y66.363 E5.1969
G1 X116.883 Y66.190 E5.2218
G1 X116.305 Y66.068 E5.2537
G1 X115.689 Y66.069 E5.2870
G1 X115.111 Y66.192 E5.3189
G1 X114.684 Y66.365 E5.3438
G1 X114.407 Y66.538 E5.3614
G1 X114.140 Y66.390 E5.3779
G1 X114.212 Y71.340 F3600
G92 E0
G1 X114.689 Y71.637 E0.0303 F270
G1 X115.117 Y71.810 E0.0552
G1 X115.695 Y71.932 E0.0871
G1 X116.311 Y71.931 E0.1204
G1 X116.914 Y71.803 E0.1537
G1 X117.860 Y71.380 E0.2096
G1 X117.860 Y129.560 E3.3507
G1 X114.140 Y129.560 E3.5516
G1 X114.140 Y78.660 E6.2996
G1 X107.221 Y78.660 E6.6732
G1 X107.145 Y78.232 E6.6966
G1 X107.520 Y78.094 E6.7182
G1 X108.129 Y77.711 E6.7571
G1 X108.642 Y77.216 E6.7956
G1 X109.044 Y76.619 E6.8344
G1 X109.305 Y75.974 E6.8720
G1 X109.410 Y75.479 E6.8993
G1 X109.445 Y74.975 E6.9266
G1 X109.373 Y74.283 E6.9641
G1 X109.150 Y73.598 E7.0031
G1 X108.801 Y72.994 E7.0407
G1 X108.454 Y72.582 E7.0698
G1 X107.920 Y72.136 E7.1074
G1 X107.158 Y71.734 E7.1539
G1 X107.255 Y71.340 E7.1758
G1 X114.212 Y71.340 E7.5514
G1 X104.839 Y71.732 F3600
G92 E0
G1 X104.065 Y72.147 E0.0474 F270
G1 X103.519 Y72.606 E0.0859
G1 X103.076 Y73.173 E0.1248
G1 X102.760 Y73.821 E0.1637
G1 X102.592 Y74.496 E0.2012
G1 X102.555 Y75.025 E0.2299
G1 X102.627 Y75.717 E0.2674
G1 X102.850 Y76.402 E0.3064
G1 X103.185 Y76.983 E0.3425
G1 X103.376 Y77.227 E0.3593
G1 X103.719 Y77.583 E0.3860
G1 X104.285 Y77.991 E0.4236
G1 X104.869 Y78.249 E0.4581
G1 X104.782 Y78.660 E0.4808
G1 X76.220 Y78.660 E2.0228
G1 X76.132 Y78.250 E2.0454
G1 X76.732 Y77.981 E2.0809
G1 X77.313 Y77.556 E2.1198
G1 X77.790 Y77.026 E2.1583
G1 X78.150 Y76.402 E2.1971
G1 X78.373 Y75.717 E2.2360
G1 X78.445 Y75.025 E2.2736
G1 X78.408 Y74.496 E2.3023
G1 X78.240 Y73.821 E2.3398
G1 X77.935 Y73.196 E2.3773
G1 X77.652 Y72.805 E2.4034
G1 X77.451 Y72.584 E2.4195
G1 X77.093 Y72.264 E2.4455
G1 X76.502 Y71.897 E2.4830
G1 X76.148 Y71.769 E2.5033
G1 X76.223 Y71.340 E2.5268
G1 X104.740 Y71.340 E4.0665
G1 X104.839 Y71.732 E4.0883
G1 X73.868 Y71.750 F3600
G92 E0
G1 X73.268 Y72.019 E0.0355 F270
G1 X72.687 Y72.444 E0.0744
G1 X72.210 Y72.974 E0.1128
G1 X71.850 Y73.598 E0.1517
G1 X71.627 Y74.283 E0.1906
G1 X71.555 Y74.975 E0.2282
G1 X71.592 Y75.504 E0.2568
G1 X71.760 Y76.179 E0.2944
G1 X72.065 Y76.804 E0.3319
G1 X72.348 Y77.195 E0.3580
G1 X72.549 Y77.416 E0.3741
G1 X72.907 Y77.736 E0.4001
G1 X73.498 Y78.103 E0.4376
