; G-Code generated by Simplify3D(R) Version 4.0.0
; Mar 4, 2018 at 5:37:53 PM
; Settings Summary
;   processName,Process1
;   applyToModels,PiMount
;   profileName,stej3D
;   profileVersion,2016-08-19 07:52:32
;   baseProfile,Printrbot Simple Metal (modified)
;   printMaterial,PLA
;   printQuality,High
;   printExtruders,
;   extruderName,Primary Extruder
;   extruderToolheadNumber,0
;   extruderDiameter,0.4
;   extruderAutoWidth,1
;   extruderWidth,0.48
;   extrusionMultiplier,0.85
;   extruderUseRetract,1
;   extruderRetractionDistance,1
;   extruderExtraRestartDistance,0
;   extruderRetractionZLift,0
;   extruderRetractionSpeed,1800
;   extruderUseCoasting,0
;   extruderCoastingDistance,0.4
;   extruderUseWipe,0
;   extruderWipeDistance,5
;   primaryExtruder,0
;   layerHeight,0.18
;   topSolidLayers,3
;   bottomSolidLayers,3
;   perimeterOutlines,3
;   printPerimetersInsideOut,0
;   startPointOption,1
;   startPointOriginX,0
;   startPointOriginY,0
;   sequentialIslands,0
;   spiralVaseMode,0
;   firstLayerHeightPercentage,100
;   firstLayerWidthPercentage,100
;   firstLayerUnderspeed,0.5
;   useRaft,0
;   raftExtruder,0
;   raftTopLayers,3
;   raftBaseLayers,2
;   raftOffset,3
;   raftSeparationDistance,0.14
;   raftTopInfill,100
;   aboveRaftSpeedMultiplier,0.3
;   useSkirt,1
;   skirtExtruder,0
;   skirtLayers,1
;   skirtOutlines,4
;   skirtOffset,4
;   usePrimePillar,0
;   primePillarExtruder,999
;   primePillarWidth,12
;   primePillarLocation,7
;   primePillarSpeedMultiplier,1
;   useOozeShield,0
;   oozeShieldExtruder,999
;   oozeShieldOffset,2
;   oozeShieldOutlines,1
;   oozeShieldSidewallShape,0
;   oozeShieldSidewallAngle,30
;   oozeShieldSpeedMultiplier,1
;   infillExtruder,0
;   internalInfillPattern,Fast Honeycomb
;   externalInfillPattern,Rectilinear
;   infillPercentage,20
;   outlineOverlapPercentage,25
;   infillExtrusionWidthPercentage,100
;   minInfillLength,5
;   infillLayerInterval,1
;   internalInfillAngles,0
;   overlapInternalInfillAngles,0
;   externalInfillAngles,45,-45
;   generateSupport,0
;   supportExtruder,0
;   supportInfillPercentage,40
;   supportExtraInflation,0
;   supportBaseLayers,0
;   denseSupportExtruder,0
;   denseSupportLayers,0
;   denseSupportInfillPercentage,70
;   supportLayerInterval,1
;   supportHorizontalPartOffset,0.3
;   supportUpperSeparationLayers,1
;   supportLowerSeparationLayers,1
;   supportType,0
;   supportGridSpacing,4
;   maxOverhangAngle,45
;   supportAngles,0
;   temperatureName,Primary Extruder,Heated Bed
;   temperatureNumber,0,1
;   temperatureSetpointCount,1,1
;   temperatureSetpointLayers,1,1
;   temperatureSetpointTemperatures,200,65
;   temperatureStabilizeAtStartup,1,1
;   temperatureHeatedBed,0,1
;   temperatureRelayBetweenLayers,0,0
;   temperatureRelayBetweenLoops,0,0
;   fanLayers,1,2
;   fanSpeeds,0,100
;   blipFanToFullPower,1
;   adjustSpeedForCooling,1
;   minSpeedLayerTime,15
;   minCoolingSpeedSlowdown,20
;   increaseFanForCooling,0
;   minFanLayerTime,45
;   maxCoolingFanSpeed,100
;   increaseFanForBridging,0
;   bridgingFanSpeed,100
;   use5D,1
;   relativeEdistances,0
;   allowEaxisZeroing,1
;   independentExtruderAxes,0
;   includeM10123,0
;   stickySupport,1
;   applyToolheadOffsets,0
;   gcodeXoffset,0
;   gcodeYoffset,0
;   gcodeZoffset,0
;   overrideMachineDefinition,1
;   machineTypeOverride,0
;   strokeXoverride,150
;   strokeYoverride,150
;   strokeZoverride,150
;   originOffsetXoverride,0
;   originOffsetYoverride,0
;   originOffsetZoverride,0
;   homeXdirOverride,-1
;   homeYdirOverride,-1
;   homeZdirOverride,-1
;   flipXoverride,1
;   flipYoverride,-1
;   flipZoverride,1
;   toolheadOffsets,0,0|0,0|0,0|0,0|0,0|0,0
;   overrideFirmwareConfiguration,1
;   firmwareTypeOverride,RepRap (Marlin/Repetier/Sprinter)
;   GPXconfigOverride,r2
;   baudRateOverride,250000
;   overridePrinterModels,1
;   printerModelsOverride
;   startingGcode,G28 X0 Y0 ; home X and Y axes, G29 ; probe Z
;   layerChangeGcode,
;   retractionGcode,
;   toolChangeGcode,
;   endingGcode,M104 S0 T0 ; turn off extruder,M140 S0 T1 ; turn off bed,G28 X0 ; home X axis,M84 ; disable motors
;   exportFileFormat,gcode
;   celebration,0
;   celebrationSong,Star Wars
;   postProcessing,
;   defaultSpeed,3000
;   outlineUnderspeed,0.5
;   solidInfillUnderspeed,0.8
;   supportUnderspeed,0.8
;   rapidXYspeed,3600
;   rapidZspeed,1000
;   minBridgingArea,50
;   bridgingExtraInflation,0
;   bridgingExtrusionMultiplier,1
;   bridgingSpeedMultiplier,1
;   useFixedBridgingAngle,0
;   fixedBridgingAngle,0
;   applyBridgingToPerimeters,0
;   filamentDiameters,1.75|1.75|1.75|1.75|1.75|1.75
;   filamentPricesPerKg,30|30|30|30|30|30
;   filamentDensities,1.25|1.25|1.25|1.25|1.25|1.25
;   useMinPrintHeight,0
;   minPrintHeight,0
;   useMaxPrintHeight,0
;   maxPrintHeight,0
;   useDiaphragm,0
;   diaphragmLayerInterval,20
;   robustSlicing,1
;   mergeAllIntoSolid,0
;   onlyRetractWhenCrossingOutline,1
;   retractBetweenLayers,0
;   useRetractionMinTravel,0
;   retractionMinTravel,3
;   retractWhileWiping,0
;   onlyWipeOutlines,1
;   avoidCrossingOutline,1
;   maxMovementDetourFactor,3
;   toolChangeRetractionDistance,12
;   toolChangeExtraRestartDistance,-0.5
;   toolChangeRetractionSpeed,600
;   externalThinWallType,0
;   internalThinWallType,2
;   thinWallAllowedOverlapPercentage,30
;   singleExtrusionMinLength,1
;   singleExtrusionMinPrintingWidthPercentage,50
;   singleExtrusionMaxPrintingWidthPercentage,200
;   singleExtrusionEndpointExtension,0.2
;   horizontalSizeCompensation,0
G90
M82
M106 S255
G4 P500
M106 S0
M140 S65
M190 S65
M104 S200 T0
M109 S200 T0
G28 X0 Y0 ; home X and Y axes
 G29 ; probe Z
G92 E0
G1 E-1.0000 F1800
G1 Z0.180 F1000
; process Process1
; layer 1, Z = 0.180
T0
; tool H0.180 W0.480
; skirt
G1 X39.869 Y44.353 F3600
G1 E0.0000 F540
G92 E0
G1 X39.912 Y44.312 E0.0018 F1500
G1 X40.507 Y43.775 E0.0263
G1 X40.564 Y43.728 E0.0285
G1 X40.903 Y43.473 E0.0415
G1 X40.963 Y43.431 E0.0437
G1 X41.890 Y42.852 E0.0771
G1 X41.967 Y42.810 E0.0798
G1 X42.423 Y42.587 E0.0953
G1 X42.504 Y42.553 E0.0979
G1 X43.530 Y42.179 E0.1313
G1 X43.600 Y42.157 E0.1335
G1 X44.008 Y42.048 E0.1464
G1 X44.080 Y42.032 E0.1487
G1 X44.867 Y41.893 E0.1731
G1 X44.925 Y41.885 E0.1749
G1 X45.261 Y41.850 E0.1852
G1 X45.319 Y41.846 E0.1870
G1 X46.118 Y41.818 E0.2114
G1 X46.191 Y41.819 E0.2136
G1 X46.613 Y41.841 E0.2265
G1 X46.686 Y41.848 E0.2287
G1 X47.725 Y41.994 E0.2608
G1 X47.798 Y42.007 E0.2630
G1 X48.209 Y42.102 E0.2759
G1 X48.280 Y42.122 E0.2782
G1 X49.040 Y42.369 E0.3026
G1 X49.095 Y42.389 E0.3044
G1 X49.408 Y42.515 E0.3147
G1 X49.462 Y42.539 E0.3165
G1 X50.180 Y42.889 E0.3409
G1 X50.244 Y42.924 E0.3431
G1 X50.607 Y43.142 E0.3560
G1 X50.668 Y43.183 E0.3582
G1 X51.551 Y43.824 E0.3916
G1 X51.619 Y43.880 E0.3943
G1 X51.996 Y44.218 E0.4097
G1 X52.058 Y44.281 E0.4124
G1 X52.787 Y45.089 E0.4456
G1 X52.833 Y45.146 E0.4479
G1 X53.087 Y45.482 E0.4607
G1 X53.128 Y45.543 E0.4630
G1 X53.574 Y46.255 E0.4886
G1 X53.611 Y46.319 E0.4909
G1 X53.803 Y46.695 E0.5038
G1 X53.833 Y46.762 E0.5060
G1 X54.227 Y47.735 E0.5381
G1 X54.252 Y47.804 E0.5403
G1 X54.376 Y48.208 E0.5532
G1 X54.394 Y48.279 E0.5555
G1 X54.561 Y49.060 E0.5799
G1 X54.571 Y49.118 E0.5816
G1 X54.618 Y49.453 E0.5920
G1 X54.624 Y49.512 E0.5938
G1 X54.672 Y50.185 E0.6144
G1 X54.673 Y50.215 E0.6153
G1 X54.679 Y50.385 E0.6205
G1 X54.680 Y50.415 E0.6214
G1 X54.680 Y64.220 E1.0429
G1 X95.320 Y64.220 E2.2838
G1 X95.320 Y50.416 E2.7052
G1 X95.321 Y50.386 E2.7061
G1 X95.326 Y50.218 E2.7113
G1 X95.328 Y50.189 E2.7122
G1 X95.374 Y49.522 E2.7326
G1 X95.380 Y49.464 E2.7344
G1 X95.427 Y49.131 E2.7446
G1 X95.437 Y49.073 E2.7464
G1 X95.594 Y48.334 E2.7695
G1 X95.608 Y48.277 E2.7713
G1 X95.701 Y47.951 E2.7816
G1 X95.719 Y47.895 E2.7834
G1 X95.977 Y47.184 E2.8065
G1 X95.999 Y47.130 E2.8083
G1 X96.137 Y46.821 E2.8186
G1 X96.162 Y46.768 E2.8204
G1 X96.517 Y46.100 E2.8435
G1 X96.546 Y46.049 E2.8453
G1 X96.725 Y45.763 E2.8556
G1 X96.758 Y45.714 E2.8574
G1 X97.202 Y45.102 E2.8805
G1 X97.238 Y45.055 E2.8823
G1 X97.455 Y44.796 E2.8926
G1 X97.495 Y44.752 E2.8944
G1 X98.051 Y44.175 E2.9189
G1 X98.105 Y44.124 E2.9212
G1 X98.425 Y43.846 E2.9341
G1 X98.482 Y43.800 E2.9364
G1 X99.332 Y43.182 E2.9685
G1 X99.394 Y43.142 E2.9707
G1 X99.756 Y42.924 E2.9836
G1 X99.820 Y42.889 E2.9858
G1 X100.538 Y42.539 E3.0102
G1 X100.592 Y42.515 E3.0120
G1 X100.905 Y42.389 E3.0223
G1 X100.960 Y42.369 E3.0241
G1 X101.680 Y42.135 E3.0472
G1 X101.736 Y42.119 E3.0490
G1 X102.064 Y42.037 E3.0593
G1 X102.121 Y42.025 E3.0611
G1 X102.867 Y41.893 E3.0842
G1 X102.925 Y41.885 E3.0860
G1 X103.261 Y41.850 E3.0963
G1 X103.319 Y41.846 E3.0981
G1 X104.033 Y41.821 E3.1199
G1 X104.077 Y41.820 E3.1213
G1 X104.330 Y41.825 E3.1290
G1 X104.374 Y41.827 E3.1304
G1 X104.836 Y41.859 E3.1445
G1 X104.880 Y41.863 E3.1458
G1 X105.132 Y41.894 E3.1536
G1 X105.175 Y41.901 E3.1549
G1 X105.879 Y42.025 E3.1767
G1 X105.936 Y42.037 E3.1785
G1 X106.264 Y42.119 E3.1889
G1 X106.320 Y42.135 E3.1906
G1 X107.040 Y42.369 E3.2137
G1 X107.095 Y42.389 E3.2155
G1 X107.408 Y42.515 E3.2258
G1 X107.462 Y42.539 E3.2276
G1 X108.142 Y42.871 E3.2507
G1 X108.193 Y42.898 E3.2525
G1 X108.486 Y43.067 E3.2628
G1 X108.536 Y43.098 E3.2646
G1 X109.163 Y43.522 E3.2877
G1 X109.211 Y43.556 E3.2895
G1 X109.477 Y43.764 E3.2999
G1 X109.522 Y43.802 E3.3016
G1 X110.084 Y44.308 E3.3247
G1 X110.126 Y44.349 E3.3265
G1 X110.360 Y44.591 E3.3368
G1 X110.400 Y44.634 E3.3386
G1 X110.884 Y45.211 E3.3616
G1 X110.920 Y45.258 E3.3634
G1 X111.119 Y45.530 E3.3737
G1 X111.151 Y45.579 E3.3755
G1 X111.552 Y46.220 E3.3986
G1 X111.581 Y46.270 E3.4003
G1 X111.740 Y46.568 E3.4106
G1 X111.766 Y46.621 E3.4124
G1 X112.074 Y47.311 E3.4355
G1 X112.096 Y47.366 E3.4373
G1 X112.212 Y47.684 E3.4477
G1 X112.230 Y47.740 E3.4495
G1 X112.451 Y48.508 E3.4739
G1 X112.468 Y48.579 E3.4761
G1 X112.549 Y48.994 E3.4890
G1 X112.560 Y49.067 E3.4912
G1 X112.662 Y50.030 E3.5208
G1 X112.665 Y50.074 E3.5222
G1 X112.679 Y50.328 E3.5299
G1 X112.680 Y50.373 E3.5313
G1 X112.680 Y99.626 E5.0352
G1 X112.679 Y99.670 E5.0365
G1 X112.666 Y99.923 E5.0442
G1 X112.662 Y99.967 E5.0456
G1 X112.562 Y100.923 E5.0749
G1 X112.551 Y100.995 E5.0771
G1 X112.471 Y101.408 E5.0900
G1 X112.454 Y101.479 E5.0922
G1 X112.235 Y102.247 E5.1166
G1 X112.217 Y102.303 E5.1184
G1 X112.101 Y102.622 E5.1287
G1 X112.079 Y102.676 E5.1305
G1 X111.754 Y103.406 E5.1549
G1 X111.722 Y103.472 E5.1572
G1 X111.517 Y103.841 E5.1701
G1 X111.479 Y103.904 E5.1723
G1 X110.893 Y104.774 E5.2043
G1 X110.849 Y104.833 E5.2066
G1 X110.583 Y105.163 E5.2195
G1 X110.535 Y105.218 E5.2218
G1 X109.978 Y105.795 E5.2462
G1 X109.935 Y105.836 E5.2480
G1 X109.683 Y106.063 E5.2584
G1 X109.638 Y106.101 E5.2602
G1 X109.042 Y106.567 E5.2833
G1 X108.994 Y106.601 E5.2851
G1 X108.714 Y106.790 E5.2954
G1 X108.664 Y106.821 E5.2972
G1 X108.009 Y107.200 E5.3203
G1 X107.957 Y107.227 E5.3221
G1 X107.653 Y107.375 E5.3324
G1 X107.600 Y107.399 E5.3342
G1 X106.898 Y107.683 E5.3573
G1 X106.843 Y107.703 E5.3591
G1 X106.521 Y107.808 E5.3695
G1 X106.465 Y107.824 E5.3712
G1 X105.730 Y108.007 E5.3943
G1 X105.673 Y108.019 E5.3961
G1 X105.341 Y108.077 E5.4064
G1 X105.283 Y108.086 E5.4082
G1 X104.531 Y108.165 E5.4313
G1 X104.472 Y108.169 E5.4331
G1 X104.134 Y108.181 E5.4434
G1 X104.076 Y108.181 E5.4452
G1 X103.319 Y108.154 E5.4683
G1 X103.261 Y108.150 E5.4701
G1 X102.924 Y108.115 E5.4804
G1 X102.866 Y108.107 E5.4822
G1 X102.121 Y107.975 E5.5053
G1 X102.064 Y107.963 E5.5071
G1 X101.736 Y107.881 E5.5174
G1 X101.680 Y107.865 E5.5192
G1 X100.960 Y107.631 E5.5423
G1 X100.905 Y107.611 E5.5441
G1 X100.592 Y107.485 E5.5544
G1 X100.538 Y107.461 E5.5562
G1 X99.858 Y107.129 E5.5793
G1 X99.806 Y107.101 E5.5811
G1 X99.513 Y106.932 E5.5915
G1 X99.464 Y106.901 E5.5932
G1 X98.836 Y106.478 E5.6163
G1 X98.789 Y106.444 E5.6181
G1 X98.523 Y106.236 E5.6284
G1 X98.478 Y106.198 E5.6302
G1 X97.916 Y105.692 E5.6533
G1 X97.874 Y105.652 E5.6551
G1 X97.640 Y105.409 E5.6654
G1 X97.600 Y105.366 E5.6672
G1 X97.116 Y104.788 E5.6902
G1 X97.080 Y104.742 E5.6920
G1 X96.881 Y104.469 E5.7023
G1 X96.849 Y104.421 E5.7041
G1 X96.448 Y103.780 E5.7272
G1 X96.418 Y103.730 E5.7289
G1 X96.260 Y103.432 E5.7392
G1 X96.234 Y103.380 E5.7410
G1 X95.926 Y102.689 E5.7641
G1 X95.904 Y102.634 E5.7659
G1 X95.788 Y102.316 E5.7763
G1 X95.770 Y102.260 E5.7781
G1 X95.549 Y101.492 E5.8025
G1 X95.532 Y101.421 E5.8047
G1 X95.451 Y101.006 E5.8176
G1 X95.440 Y100.933 E5.8198
G1 X95.338 Y99.970 E5.8494
G1 X95.335 Y99.926 E5.8508
G1 X95.321 Y99.672 E5.8585
G1 X95.320 Y99.627 E5.8599
G1 X95.320 Y85.780 E6.2827
G1 X54.680 Y85.780 E7.5235
G1 X54.680 Y99.626 E7.9463
G1 X54.679 Y99.670 E7.9477
G1 X54.666 Y99.923 E7.9554
G1 X54.662 Y99.967 E7.9567
G1 X54.562 Y100.923 E7.9861
G1 X54.551 Y100.995 E7.9883
G1 X54.471 Y101.409 E8.0012
G1 X54.454 Y101.480 E8.0034
G1 X54.223 Y102.288 E8.0291
G1 X54.200 Y102.358 E8.0313
G1 X54.049 Y102.752 E8.0442
G1 X54.019 Y102.820 E8.0465
G1 X53.560 Y103.764 E8.0785
G1 X53.525 Y103.828 E8.0807
G1 X53.308 Y104.191 E8.0936
G1 X53.267 Y104.252 E8.0959
G1 X52.798 Y104.899 E8.1203
G1 X52.762 Y104.945 E8.1221
G1 X52.544 Y105.205 E8.1324
G1 X52.505 Y105.248 E8.1342
G1 X51.948 Y105.826 E8.1587
G1 X51.895 Y105.876 E8.1610
G1 X51.575 Y106.154 E8.1739
G1 X51.518 Y106.200 E8.1761
G1 X50.668 Y106.817 E8.2082
G1 X50.607 Y106.858 E8.2104
G1 X50.245 Y107.075 E8.2233
G1 X50.180 Y107.110 E8.2256
G1 X49.462 Y107.461 E8.2500
G1 X49.408 Y107.485 E8.2518
G1 X49.095 Y107.611 E8.2621
G1 X49.039 Y107.631 E8.2639
G1 X48.320 Y107.865 E8.2870
G1 X48.264 Y107.881 E8.2888
G1 X47.936 Y107.963 E8.2991
G1 X47.879 Y107.975 E8.3009
G1 X47.134 Y108.107 E8.3240
G1 X47.076 Y108.115 E8.3258
G1 X46.739 Y108.150 E8.3361
G1 X46.681 Y108.154 E8.3379
G1 X45.882 Y108.182 E8.3623
G1 X45.809 Y108.181 E8.3645
G1 X45.387 Y108.159 E8.3774
G1 X45.314 Y108.152 E8.3797
G1 X44.274 Y108.006 E8.4117
G1 X44.202 Y107.993 E8.4140
G1 X43.791 Y107.898 E8.4268
G1 X43.720 Y107.878 E8.4291
G1 X42.961 Y107.631 E8.4535
G1 X42.905 Y107.611 E8.4553
G1 X42.592 Y107.485 E8.4656
G1 X42.538 Y107.461 E8.4674
G1 X41.858 Y107.129 E8.4905
G1 X41.806 Y107.101 E8.4923
G1 X41.513 Y106.932 E8.5026
G1 X41.463 Y106.901 E8.5044
G1 X40.836 Y106.478 E8.5275
G1 X40.789 Y106.444 E8.5293
G1 X40.523 Y106.236 E8.5396
G1 X40.478 Y106.198 E8.5414
G1 X39.885 Y105.664 E8.5658
G1 X39.833 Y105.613 E8.5680
G1 X39.545 Y105.304 E8.5809
G1 X39.497 Y105.248 E8.5831
G1 X38.826 Y104.391 E8.6164
G1 X38.776 Y104.319 E8.6190
G1 X38.508 Y103.890 E8.6345
G1 X38.465 Y103.813 E8.6372
G1 X37.986 Y102.832 E8.6705
G1 X37.957 Y102.765 E8.6727
G1 X37.805 Y102.371 E8.6856
G1 X37.781 Y102.301 E8.6879
G1 X37.549 Y101.492 E8.7136
G1 X37.532 Y101.421 E8.7158
G1 X37.451 Y101.006 E8.7287
G1 X37.440 Y100.933 E8.7310
G1 X37.338 Y99.970 E8.7606
G1 X37.335 Y99.926 E8.7619
G1 X37.321 Y99.671 E8.7697
G1 X37.320 Y99.627 E8.7710
G1 X37.320 Y50.374 E10.2749
G1 X37.321 Y50.330 E10.2762
G1 X37.334 Y50.077 E10.2839
G1 X37.338 Y50.033 E10.2853
G1 X37.442 Y49.035 E10.3159
G1 X37.456 Y48.948 E10.3186
G1 X37.561 Y48.453 E10.3341
G1 X37.584 Y48.368 E10.3368
G1 X37.933 Y47.290 E10.3714
G1 X37.965 Y47.208 E10.3741
G1 X38.171 Y46.744 E10.3895
G1 X38.211 Y46.666 E10.3922
G1 X38.756 Y45.719 E10.4256
G1 X38.795 Y45.657 E10.4278
G1 X39.037 Y45.311 E10.4407
G1 X39.082 Y45.253 E10.4430
G1 X39.595 Y44.640 E10.4674
G1 X39.634 Y44.597 E10.4692
G1 X39.869 Y44.353 E10.4795
G1 X40.209 Y44.692 F3600
G92 E0
G1 X40.239 Y44.663 E0.0013 F1500
G1 X40.821 Y44.139 E0.0252
G1 X40.861 Y44.105 E0.0268
G1 X41.183 Y43.863 E0.0391
G1 X41.227 Y43.833 E0.0407
G1 X42.134 Y43.266 E0.0734
G1 X42.189 Y43.236 E0.0753
G1 X42.622 Y43.024 E0.0900
G1 X42.680 Y43.000 E0.0919
G1 X43.684 Y42.634 E0.1246
G1 X43.734 Y42.618 E0.1262
G1 X44.122 Y42.514 E0.1384
G1 X44.173 Y42.503 E0.1400
G1 X44.942 Y42.368 E0.1638
G1 X44.983 Y42.362 E0.1651
G1 X45.303 Y42.328 E0.1749
G1 X45.344 Y42.325 E0.1762
G1 X46.124 Y42.298 E0.2000
G1 X46.176 Y42.298 E0.2016
G1 X46.577 Y42.319 E0.2139
G1 X46.630 Y42.324 E0.2155
G1 X47.648 Y42.468 E0.2469
G1 X47.700 Y42.477 E0.2485
G1 X48.091 Y42.568 E0.2608
G1 X48.142 Y42.582 E0.2624
