; G-Code generated by Simplify3D(R) Version 4.0.0
; Sep 4, 2017 at 11:51:21 AM
; Settings Summary
;   processName,Process1
;   applyToModels,RealayMount,RealayMount(2)
;   profileName,camwatt settings
;   profileVersion,2017-05-14 09:40:51
;   baseProfile,Printrbot Simple Metal
;   printMaterial,PLA
;   printQuality,Medium
;   printExtruders,
;   extruderName,Primary Extruder
;   extruderToolheadNumber,0
;   extruderDiameter,0.4
;   extruderAutoWidth,1
;   extruderWidth,0.48
;   extrusionMultiplier,0.9
;   extruderUseRetract,1
;   extruderRetractionDistance,2
;   extruderExtraRestartDistance,0
;   extruderRetractionZLift,0.25
;   extruderRetractionSpeed,2400
;   extruderUseCoasting,0
;   extruderCoastingDistance,0.2
;   extruderUseWipe,0
;   extruderWipeDistance,5
;   primaryExtruder,0
;   layerHeight,0.15
;   topSolidLayers,7
;   bottomSolidLayers,6
;   perimeterOutlines,3
;   printPerimetersInsideOut,0
;   startPointOption,2
;   startPointOriginX,0
;   startPointOriginY,0
;   sequentialIslands,0
;   spiralVaseMode,0
;   firstLayerHeightPercentage,167
;   firstLayerWidthPercentage,120
;   firstLayerUnderspeed,0.2
;   useRaft,0
;   raftExtruder,0
;   raftTopLayers,3
;   raftBaseLayers,2
;   raftOffset,3
;   raftSeparationDistance,0.14
;   raftTopInfill,100
;   aboveRaftSpeedMultiplier,0.3
;   useSkirt,1
;   skirtExtruder,0
;   skirtLayers,1
;   skirtOutlines,3
;   skirtOffset,4
;   usePrimePillar,0
;   primePillarExtruder,999
;   primePillarWidth,12
;   primePillarLocation,7
;   primePillarSpeedMultiplier,1
;   useOozeShield,0
;   oozeShieldExtruder,999
;   oozeShieldOffset,2
;   oozeShieldOutlines,1
;   oozeShieldSidewallShape,1
;   oozeShieldSidewallAngle,30
;   oozeShieldSpeedMultiplier,1
;   infillExtruder,0
;   internalInfillPattern,Fast Honeycomb
;   externalInfillPattern,Rectilinear
;   infillPercentage,20
;   outlineOverlapPercentage,20
;   infillExtrusionWidthPercentage,100
;   minInfillLength,5
;   infillLayerInterval,1
;   internalInfillAngles,0
;   overlapInternalInfillAngles,0
;   externalInfillAngles,45,-45
;   generateSupport,0
;   supportExtruder,0
;   supportInfillPercentage,30
;   supportExtraInflation,0
;   supportBaseLayers,0
;   denseSupportExtruder,0
;   denseSupportLayers,0
;   denseSupportInfillPercentage,70
;   supportLayerInterval,1
;   supportHorizontalPartOffset,0.3
;   supportUpperSeparationLayers,1
;   supportLowerSeparationLayers,1
;   supportType,0
;   supportGridSpacing,4
;   maxOverhangAngle,45
;   supportAngles,0
;   temperatureName,Primary Extruder,Heated Bed
;   temperatureNumber,0,1
;   temperatureSetpointCount,2,1
;   temperatureSetpointLayers,1,2,1
;   temperatureSetpointTemperatures,197,200,65
;   temperatureStabilizeAtStartup,1,1
;   temperatureHeatedBed,0,1
;   temperatureRelayBetweenLayers,0,0
;   temperatureRelayBetweenLoops,0,0
;   fanLayers,1,2
;   fanSpeeds,0,100
;   blipFanToFullPower,1
;   adjustSpeedForCooling,1
;   minSpeedLayerTime,15
;   minCoolingSpeedSlowdown,20
;   increaseFanForCooling,0
;   minFanLayerTime,45
;   maxCoolingFanSpeed,100
;   increaseFanForBridging,0
;   bridgingFanSpeed,100
;   use5D,1
;   relativeEdistances,0
;   allowEaxisZeroing,1
;   independentExtruderAxes,0
;   includeM10123,0
;   stickySupport,1
;   applyToolheadOffsets,0
;   gcodeXoffset,0
;   gcodeYoffset,0
;   gcodeZoffset,0
;   overrideMachineDefinition,1
;   machineTypeOverride,0
;   strokeXoverride,150
;   strokeYoverride,150
;   strokeZoverride,150
;   originOffsetXoverride,0
;   originOffsetYoverride,0
;   originOffsetZoverride,0
;   homeXdirOverride,-1
;   homeYdirOverride,-1
;   homeZdirOverride,-1
;   flipXoverride,1
;   flipYoverride,-1
;   flipZoverride,1
;   toolheadOffsets,0,0|0,0|0,0|0,0|0,0|0,0
;   overrideFirmwareConfiguration,1
;   firmwareTypeOverride,RepRap (Marlin/Repetier/Sprinter)
;   GPXconfigOverride,r2
;   baudRateOverride,250000
;   overridePrinterModels,1
;   printerModelsOverride
;   startingGcode,G28 X0 Y0 Z0 ; home X and Y, Z axes,G29 ; probe Z
;   layerChangeGcode,
;   retractionGcode,
;   toolChangeGcode,
;   endingGcode,M104 S0 T0 ; turn off extruder,M140 S0 T1 ; turn off bed,G28 Y0 ; home Y axis,M84 ; disable motors
;   exportFileFormat,gcode
;   celebration,0
;   celebrationSong,Star Wars
;   postProcessing,
;   defaultSpeed,1800
;   outlineUnderspeed,0.5
;   solidInfillUnderspeed,0.8
;   supportUnderspeed,0.8
;   rapidXYspeed,3600
;   rapidZspeed,1000
;   minBridgingArea,50
;   bridgingExtraInflation,0
;   bridgingExtrusionMultiplier,1
;   bridgingSpeedMultiplier,1
;   useFixedBridgingAngle,0
;   fixedBridgingAngle,0
;   applyBridgingToPerimeters,0
;   filamentDiameters,1.75|1.75|1.75|1.75|1.75|1.75
;   filamentPricesPerKg,46|46|46|46|46|46
;   filamentDensities,1.25|1.25|1.25|1.25|1.25|1.25
;   useMinPrintHeight,0
;   minPrintHeight,0
;   useMaxPrintHeight,0
;   maxPrintHeight,0
;   useDiaphragm,0
;   diaphragmLayerInterval,20
;   robustSlicing,1
;   mergeAllIntoSolid,0
;   onlyRetractWhenCrossingOutline,1
;   retractBetweenLayers,0
;   useRetractionMinTravel,1
;   retractionMinTravel,2
;   retractWhileWiping,0
;   onlyWipeOutlines,0
;   avoidCrossingOutline,1
;   maxMovementDetourFactor,3
;   toolChangeRetractionDistance,12
;   toolChangeExtraRestartDistance,-0.5
;   toolChangeRetractionSpeed,600
;   externalThinWallType,0
;   internalThinWallType,2
;   thinWallAllowedOverlapPercentage,10
;   singleExtrusionMinLength,1
;   singleExtrusionMinPrintingWidthPercentage,50
;   singleExtrusionMaxPrintingWidthPercentage,200
;   singleExtrusionEndpointExtension,0.2
;   horizontalSizeCompensation,0
G90
M82
M106 S255
G4 P500
M106 S0
M140 S65
M190 S65
M104 S197 T0
M109 S197 T0
G28 X0 Y0 Z0 ; home X and Y
 Z axes
G29 ; probe Z
G92 E0
G1 E-2.0000 F2400
G1 Z0.500 F1000
; process Process1
; layer 1, Z = 0.251
T0
; tool H0.250 W0.576
; skirt
G1 X44.390 Y55.966 F3600
G1 Z0.250 F1000
G1 E0.0000 F720
G92 E0
G1 X44.423 Y55.939 E0.0023 F360
G1 X44.677 Y55.740 E0.0197
G1 X44.711 Y55.715 E0.0220
G1 X45.359 Y55.279 E0.0642
G1 X45.403 Y55.251 E0.0670
G1 X45.755 Y55.057 E0.0887
G1 X45.801 Y55.033 E0.0915
G1 X46.778 Y54.598 E0.1492
G1 X46.837 Y54.576 E0.1526
G1 X47.295 Y54.427 E0.1786
G1 X47.356 Y54.411 E0.1820
G1 X48.402 Y54.188 E0.2397
G1 X48.453 Y54.180 E0.2426
G1 X48.852 Y54.131 E0.2643
G1 X48.904 Y54.127 E0.2671
G1 X49.684 Y54.099 E0.3092
G1 X49.726 Y54.099 E0.3115
G1 X50.047 Y54.111 E0.3288
G1 X50.089 Y54.114 E0.3311
G1 X50.824 Y54.191 E0.3710
G1 X50.866 Y54.197 E0.3733
G1 X51.182 Y54.252 E0.3906
G1 X51.223 Y54.261 E0.3929
G1 X51.941 Y54.440 E0.4328
G1 X51.981 Y54.452 E0.4351
G1 X52.287 Y54.551 E0.4524
G1 X52.326 Y54.565 E0.4547
G1 X53.012 Y54.842 E0.4946
G1 X53.050 Y54.859 E0.4969
G1 X53.339 Y55.000 E0.5142
G1 X53.376 Y55.020 E0.5165
G1 X54.017 Y55.390 E0.5564
G1 X54.052 Y55.412 E0.5587
G1 X54.319 Y55.592 E0.5760
G1 X54.353 Y55.616 E0.5783
G1 X54.967 Y56.096 E0.6204
G1 X55.007 Y56.130 E0.6232
G1 X55.300 Y56.403 E0.6449
G1 X55.336 Y56.441 E0.6477
G1 X56.022 Y57.202 E0.7030
G1 X56.055 Y57.242 E0.7058
G1 X56.296 Y57.561 E0.7274
G1 X56.326 Y57.604 E0.7302
G1 X56.739 Y58.264 E0.7723
G1 X56.760 Y58.301 E0.7745
G1 X56.911 Y58.584 E0.7919
G1 X56.930 Y58.622 E0.7941
G1 X57.231 Y59.297 E0.8341
G1 X57.247 Y59.336 E0.8363
G1 X57.357 Y59.638 E0.8537
G1 X57.370 Y59.678 E0.8559
G1 X57.575 Y60.389 E0.8959
G1 X57.585 Y60.429 E0.8981
G1 X57.652 Y60.743 E0.9155
G1 X57.660 Y60.785 E0.9178
G1 X57.763 Y61.517 E0.9577
G1 X57.768 Y61.559 E0.9600
G1 X57.791 Y61.880 E0.9773
G1 X57.792 Y61.922 E0.9796
G1 X57.795 Y64.700 E1.1296
G1 X92.200 Y64.700 E2.9871
G1 X92.200 Y62.180 E3.1231
G1 X92.201 Y62.149 E3.1248
G1 X92.213 Y61.909 E3.1378
G1 X92.216 Y61.877 E3.1395
G1 X92.314 Y60.939 E3.1905
G1 X92.322 Y60.887 E3.1933
G1 X92.398 Y60.495 E3.2148
G1 X92.410 Y60.444 E3.2176
G1 X92.624 Y59.695 E3.2597
G1 X92.637 Y59.655 E3.2620
G1 X92.746 Y59.353 E3.2794
G1 X92.762 Y59.314 E3.2816
G1 X93.062 Y58.638 E3.3216
G1 X93.081 Y58.600 E3.3238
G1 X93.231 Y58.317 E3.3411
G1 X93.252 Y58.281 E3.3434
G1 X93.664 Y57.618 E3.3855
G1 X93.694 Y57.575 E3.3883
G1 X93.936 Y57.253 E3.4101
G1 X93.970 Y57.212 E3.4129
G1 X94.661 Y56.444 E3.4687
G1 X94.698 Y56.406 E3.4716
G1 X94.992 Y56.131 E3.4933
G1 X95.032 Y56.097 E3.4962
G1 X95.679 Y55.592 E3.5405
G1 X95.722 Y55.561 E3.5433
G1 X96.059 Y55.342 E3.5650
G1 X96.104 Y55.316 E3.5679
G1 X97.012 Y54.833 E3.6234
G1 X97.060 Y54.810 E3.6262
G1 X97.429 Y54.653 E3.6479
G1 X97.478 Y54.635 E3.6507
G1 X98.220 Y54.394 E3.6928
G1 X98.260 Y54.382 E3.6951
G1 X98.572 Y54.305 E3.7125
G1 X98.613 Y54.296 E3.7147
G1 X99.342 Y54.168 E3.7547
G1 X99.383 Y54.162 E3.7569
G1 X99.703 Y54.128 E3.7743
G1 X99.744 Y54.125 E3.7765
G1 X100.444 Y54.101 E3.8143
G1 X100.475 Y54.100 E3.8160
G1 X100.716 Y54.105 E3.8290
G1 X100.747 Y54.106 E3.8307
G1 X101.236 Y54.140 E3.8572
G1 X101.278 Y54.145 E3.8594
G1 X101.596 Y54.189 E3.8768
G1 X101.638 Y54.197 E3.8790
G1 X102.605 Y54.402 E3.9324
G1 X102.655 Y54.415 E3.9353
G1 X103.040 Y54.533 E3.9569
G1 X103.089 Y54.550 E3.9598
G1 X103.812 Y54.843 E4.0019
G1 X103.850 Y54.860 E4.0041
G1 X104.139 Y55.000 E4.0215
G1 X104.176 Y55.020 E4.0237
G1 X104.817 Y55.390 E4.0637
G1 X104.852 Y55.412 E4.0659
G1 X105.119 Y55.592 E4.0833
G1 X105.153 Y55.616 E4.0856
G1 X105.735 Y56.072 E4.1255
G1 X105.767 Y56.099 E4.1277
G1 X106.006 Y56.313 E4.1451
G1 X106.036 Y56.342 E4.1473
G1 X106.575 Y56.900 E4.1892
G1 X106.609 Y56.939 E4.1920
G1 X106.861 Y57.249 E4.2136
G1 X106.892 Y57.291 E4.2164
G1 X107.467 Y58.143 E4.2719
G1 X107.495 Y58.187 E4.2747
G1 X107.690 Y58.538 E4.2963
G1 X107.713 Y58.585 E4.2992
G1 X108.031 Y59.297 E4.3413
G1 X108.047 Y59.336 E4.3436
G1 X108.158 Y59.638 E4.3609
G1 X108.171 Y59.678 E4.3632
G1 X108.375 Y60.389 E4.4032
G1 X108.385 Y60.430 E4.4054
G1 X108.452 Y60.743 E4.4227
G1 X108.460 Y60.784 E4.4250
G1 X108.564 Y61.518 E4.4650
G1 X108.568 Y61.560 E4.4672
G1 X108.591 Y61.882 E4.4847
G1 X108.592 Y61.924 E4.4870
G1 X108.600 Y87.819 E5.8850
G1 X108.599 Y87.850 E5.8867
G1 X108.587 Y88.091 E5.8997
G1 X108.584 Y88.122 E5.9014
G1 X108.486 Y89.061 E5.9524
G1 X108.478 Y89.113 E5.9552
G1 X108.402 Y89.505 E5.9767
G1 X108.390 Y89.555 E5.9795
G1 X108.165 Y90.343 E6.0238
G1 X108.149 Y90.393 E6.0266
G1 X108.005 Y90.769 E6.0483
G1 X107.984 Y90.817 E6.0512
G1 X107.534 Y91.742 E6.1067
G1 X107.509 Y91.788 E6.1096
G1 X107.303 Y92.133 E6.1312
G1 X107.274 Y92.176 E6.1341
G1 X106.816 Y92.808 E6.1762
G1 X106.790 Y92.841 E6.1784
G1 X106.583 Y93.088 E6.1958
G1 X106.555 Y93.119 E6.1981
G1 X106.011 Y93.684 E6.2405
G1 X105.973 Y93.720 E6.2433
G1 X105.668 Y93.985 E6.2651
G1 X105.627 Y94.018 E6.2679
G1 X104.794 Y94.623 E6.3235
G1 X104.751 Y94.652 E6.3263
G1 X104.406 Y94.859 E6.3480
G1 X104.360 Y94.884 E6.3508
G1 X103.659 Y95.226 E6.3930
G1 X103.621 Y95.243 E6.3952
G1 X103.323 Y95.363 E6.4126
G1 X103.283 Y95.377 E6.4148
G1 X102.580 Y95.606 E6.4548
G1 X102.540 Y95.618 E6.4570
G1 X102.228 Y95.695 E6.4744
G1 X102.187 Y95.704 E6.4766
G1 X101.459 Y95.832 E6.5166
G1 X101.417 Y95.838 E6.5188
G1 X101.097 Y95.872 E6.5362
G1 X101.056 Y95.875 E6.5384
G1 X100.316 Y95.901 E6.5784
G1 X100.274 Y95.901 E6.5807
G1 X99.953 Y95.889 E6.5980
G1 X99.911 Y95.886 E6.6003
G1 X99.175 Y95.809 E6.6402
G1 X99.134 Y95.803 E6.6425
G1 X98.818 Y95.748 E6.6598
G1 X98.777 Y95.739 E6.6620
G1 X98.060 Y95.560 E6.7020
G1 X98.019 Y95.548 E6.7042
G1 X97.713 Y95.449 E6.7216
G1 X97.674 Y95.435 E6.7239
G1 X96.988 Y95.157 E6.7638
G1 X96.949 Y95.140 E6.7661
G1 X96.661 Y95.000 E6.7834
G1 X96.624 Y94.980 E6.7857
G1 X95.983 Y94.610 E6.8256
G1 X95.948 Y94.588 E6.8279
G1 X95.681 Y94.408 E6.8452
G1 X95.647 Y94.383 E6.8475
G1 X95.065 Y93.928 E6.8874
G1 X95.033 Y93.901 E6.8897
G1 X94.795 Y93.687 E6.9070
G1 X94.764 Y93.658 E6.9092
G1 X94.254 Y93.129 E6.9489
G1 X94.226 Y93.098 E6.9512
G1 X94.020 Y92.854 E6.9684
G1 X93.995 Y92.821 E6.9707
G1 X93.536 Y92.191 E7.0127
G1 X93.507 Y92.148 E7.0156
G1 X93.300 Y91.804 E7.0372
G1 X93.275 Y91.758 E7.0401
G1 X92.823 Y90.833 E7.0956
G1 X92.802 Y90.785 E7.0984
G1 X92.657 Y90.410 E7.1202
G1 X92.640 Y90.360 E7.1230
G1 X92.425 Y89.611 E7.1651
G1 X92.415 Y89.570 E7.1674
G1 X92.348 Y89.257 E7.1847
G1 X92.340 Y89.216 E7.1869
G1 X92.237 Y88.483 E7.2269
G1 X92.232 Y88.442 E7.2291
G1 X92.209 Y88.120 E7.2465
G1 X92.208 Y88.079 E7.2488
G1 X92.205 Y85.300 E7.3988
G1 X57.800 Y85.300 E9.2563
G1 X57.800 Y87.820 E9.3923
G1 X57.799 Y87.851 E9.3940
G1 X57.787 Y88.091 E9.4070
G1 X57.784 Y88.122 E9.4087
G1 X57.686 Y89.061 E9.4596
G1 X57.678 Y89.113 E9.4624
G1 X57.602 Y89.505 E9.4840
G1 X57.590 Y89.556 E9.4868
G1 X57.365 Y90.344 E9.5311
G1 X57.349 Y90.393 E9.5339
G1 X57.205 Y90.769 E9.5556
G1 X57.184 Y90.817 E9.5584
G1 X56.717 Y91.778 E9.6162
G1 X56.686 Y91.833 E9.6195
G1 X56.431 Y92.242 E9.6456
G1 X56.395 Y92.294 E9.6490
G1 X55.762 Y93.105 E9.7045
G1 X55.736 Y93.138 E9.7068
G1 X55.520 Y93.377 E9.7242
G1 X55.491 Y93.407 E9.7264
G1 X55.107 Y93.779 E9.7553
G1 X55.075 Y93.807 E9.7576
G1 X54.828 Y94.015 E9.7750
G1 X54.795 Y94.041 E9.7773
G1 X53.994 Y94.623 E9.8307
G1 X53.951 Y94.652 E9.8336
G1 X53.606 Y94.859 E9.8553
G1 X53.560 Y94.884 E9.8581
G1 X52.859 Y95.226 E9.9002
G1 X52.821 Y95.243 E9.9025
G1 X52.523 Y95.363 E9.9198
G1 X52.483 Y95.378 E9.9221
G1 X51.780 Y95.606 E9.9620
G1 X51.739 Y95.618 E9.9643
G1 X51.428 Y95.695 E9.9816
G1 X51.387 Y95.704 E9.9839
G1 X50.659 Y95.832 E10.0238
G1 X50.617 Y95.838 E10.0261
G1 X50.297 Y95.872 E10.0434
G1 X50.256 Y95.875 E10.0457
G1 X49.476 Y95.902 E10.0878
G1 X49.424 Y95.902 E10.0906
G1 X49.022 Y95.881 E10.1123
G1 X48.970 Y95.876 E10.1151
G1 X47.952 Y95.732 E10.1707
G1 X47.900 Y95.723 E10.1735
G1 X47.509 Y95.632 E10.1952
G1 X47.459 Y95.619 E10.1980
G1 X46.678 Y95.365 E10.2423
G1 X46.629 Y95.347 E10.2451
G1 X46.259 Y95.190 E10.2668
G1 X46.212 Y95.167 E10.2697
G1 X45.303 Y94.684 E10.3252
G1 X45.258 Y94.657 E10.3280
G1 X44.922 Y94.439 E10.3497
G1 X44.879 Y94.408 E10.3526
G1 X44.265 Y93.928 E10.3946
G1 X44.233 Y93.901 E10.3969
G1 X43.995 Y93.687 E10.4142
G1 X43.965 Y93.658 E10.4164
G1 X43.426 Y93.101 E10.4583
G1 X43.391 Y93.062 E10.4611
G1 X43.139 Y92.751 E10.4827
G1 X43.108 Y92.709 E10.4855
G1 X42.532 Y91.857 E10.5410
G1 X42.505 Y91.813 E10.5439
G1 X42.310 Y91.462 E10.5655
G1 X42.287 Y91.415 E10.5684
G1 X41.969 Y90.703 E10.6105
G1 X41.953 Y90.664 E10.6127
G1 X41.843 Y90.362 E10.6301
G1 X41.830 Y90.322 E10.6324
G1 X41.625 Y89.611 E10.6723
G1 X41.615 Y89.570 E10.6746
G1 X41.548 Y89.256 E10.6919
G1 X41.540 Y89.215 E10.6942
G1 X41.436 Y88.482 E10.7342
G1 X41.432 Y88.440 E10.7364
G1 X41.409 Y88.117 E10.7539
G1 X41.408 Y88.075 E10.7562
G1 X41.407 Y61.942 E12.1671
G1 X41.408 Y61.901 E12.1693
G1 X41.430 Y61.586 E12.1863
G1 X41.434 Y61.545 E12.1886
G1 X41.536 Y60.808 E12.2287
G1 X41.543 Y60.766 E12.2310
G1 X41.610 Y60.449 E12.2485
G1 X41.620 Y60.408 E12.2508
G1 X41.824 Y59.695 E12.2908
G1 X41.837 Y59.655 E12.2931
G1 X41.946 Y59.353 E12.3104
G1 X41.962 Y59.314 E12.3127
G1 X42.262 Y58.638 E12.3526
G1 X42.280 Y58.600 E12.3549
G1 X42.431 Y58.316 E12.3723
G1 X42.452 Y58.280 E12.3745
G1 X42.843 Y57.652 E12.4145
G1 X42.867 Y57.618 E12.4167
G1 X43.055 Y57.357 E12.4341
G1 X43.081 Y57.324 E12.4363
G1 X43.556 Y56.757 E12.4763
G1 X43.584 Y56.726 E12.4785
G1 X43.807 Y56.494 E12.4959
G1 X43.838 Y56.465 E12.4982
G1 X44.390 Y55.966 E12.5384
G1 X44.706 Y56.328 F3600
G92 E0
G1 X44.725 Y56.312 E0.0014 F360
G1 X44.966 Y56.123 E0.0179
G1 X44.987 Y56.109 E0.0193
G1 X45.618 Y55.682 E0.0604
G1 X45.645 Y55.666 E0.0621
G1 X45.978 Y55.481 E0.0827
G1 X46.006 Y55.467 E0.0844
G1 X46.962 Y55.042 E0.1408
G1 X46.997 Y55.028 E0.1429
G1 X47.432 Y54.887 E0.1675
G1 X47.468 Y54.877 E0.1696
G1 X48.491 Y54.660 E0.2260
G1 X48.522 Y54.655 E0.2277
G1 X48.900 Y54.608 E0.2483
G1 X48.931 Y54.606 E0.2500
G1 X49.692 Y54.579 E0.2911
G1 X49.717 Y54.579 E0.2924
G1 X50.022 Y54.590 E0.3089
G1 X50.047 Y54.592 E0.3102
G1 X50.766 Y54.667 E0.3493
G1 X50.791 Y54.671 E0.3506
G1 X51.090 Y54.724 E0.3671
G1 X51.115 Y54.729 E0.3684
G1 X51.817 Y54.904 E0.4075
G1 X51.841 Y54.911 E0.4088
G1 X52.130 Y55.005 E0.4253
G1 X52.154 Y55.013 E0.4266
G1 X52.824 Y55.284 E0.4657
G1 X52.847 Y55.295 E0.4670
G1 X53.121 Y55.428 E0.4835
G1 X53.143 Y55.440 E0.4848
G1 X53.769 Y55.801 E0.5238
