; G-Code generated by Simplify3D(R) Version 4.0.0
; Sep 4, 2017 at 9:18:29 AM
; Settings Summary
;   processName,Process1
;   applyToModels,RealayMount
;   profileName,Fast  (3 layers 20%) (modified)
;   profileVersion,2017-03-12 13:37:57
;   baseProfile,Printrbot Simple Metal (modified)
;   printMaterial,PLA
;   printQuality,High
;   printExtruders,
;   extruderName,Primary Extruder
;   extruderToolheadNumber,0
;   extruderDiameter,0.4
;   extruderAutoWidth,1
;   extruderWidth,0.48
;   extrusionMultiplier,0.85
;   extruderUseRetract,1
;   extruderRetractionDistance,1
;   extruderExtraRestartDistance,0
;   extruderRetractionZLift,0
;   extruderRetractionSpeed,1800
;   extruderUseCoasting,0
;   extruderCoastingDistance,0.4
;   extruderUseWipe,0
;   extruderWipeDistance,5
;   primaryExtruder,0
;   layerHeight,0.18
;   topSolidLayers,3
;   bottomSolidLayers,3
;   perimeterOutlines,3
;   printPerimetersInsideOut,0
;   startPointOption,1
;   startPointOriginX,0
;   startPointOriginY,0
;   sequentialIslands,0
;   spiralVaseMode,0
;   firstLayerHeightPercentage,100
;   firstLayerWidthPercentage,100
;   firstLayerUnderspeed,0.5
;   useRaft,0
;   raftExtruder,0
;   raftTopLayers,3
;   raftBaseLayers,2
;   raftOffset,3
;   raftSeparationDistance,0.14
;   raftTopInfill,100
;   aboveRaftSpeedMultiplier,0.3
;   useSkirt,1
;   skirtExtruder,0
;   skirtLayers,1
;   skirtOutlines,3
;   skirtOffset,4
;   usePrimePillar,0
;   primePillarExtruder,999
;   primePillarWidth,12
;   primePillarLocation,7
;   primePillarSpeedMultiplier,1
;   useOozeShield,0
;   oozeShieldExtruder,999
;   oozeShieldOffset,2
;   oozeShieldOutlines,1
;   oozeShieldSidewallShape,0
;   oozeShieldSidewallAngle,30
;   oozeShieldSpeedMultiplier,1
;   infillExtruder,0
;   internalInfillPattern,Fast Honeycomb
;   externalInfillPattern,Rectilinear
;   infillPercentage,20
;   outlineOverlapPercentage,25
;   infillExtrusionWidthPercentage,100
;   minInfillLength,5
;   infillLayerInterval,1
;   internalInfillAngles,0
;   overlapInternalInfillAngles,0
;   externalInfillAngles,45,-45
;   generateSupport,0
;   supportExtruder,0
;   supportInfillPercentage,40
;   supportExtraInflation,0
;   supportBaseLayers,0
;   denseSupportExtruder,0
;   denseSupportLayers,0
;   denseSupportInfillPercentage,70
;   supportLayerInterval,1
;   supportHorizontalPartOffset,0.3
;   supportUpperSeparationLayers,1
;   supportLowerSeparationLayers,1
;   supportType,0
;   supportGridSpacing,4
;   maxOverhangAngle,45
;   supportAngles,0
;   temperatureName,Primary Extruder,Heated Bed
;   temperatureNumber,0,1
;   temperatureSetpointCount,1,1
;   temperatureSetpointLayers,1,1
;   temperatureSetpointTemperatures,200,65
;   temperatureStabilizeAtStartup,1,1
;   temperatureHeatedBed,0,1
;   temperatureRelayBetweenLayers,0,0
;   temperatureRelayBetweenLoops,0,0
;   fanLayers,1,2
;   fanSpeeds,0,100
;   blipFanToFullPower,1
;   adjustSpeedForCooling,1
;   minSpeedLayerTime,15
;   minCoolingSpeedSlowdown,20
;   increaseFanForCooling,0
;   minFanLayerTime,45
;   maxCoolingFanSpeed,100
;   increaseFanForBridging,0
;   bridgingFanSpeed,100
;   use5D,1
;   relativeEdistances,0
;   allowEaxisZeroing,1
;   independentExtruderAxes,0
;   includeM10123,0
;   stickySupport,1
;   applyToolheadOffsets,0
;   gcodeXoffset,0
;   gcodeYoffset,0
;   gcodeZoffset,0
;   overrideMachineDefinition,1
;   machineTypeOverride,0
;   strokeXoverride,150
;   strokeYoverride,150
;   strokeZoverride,150
;   originOffsetXoverride,0
;   originOffsetYoverride,0
;   originOffsetZoverride,0
;   homeXdirOverride,-1
;   homeYdirOverride,-1
;   homeZdirOverride,-1
;   flipXoverride,1
;   flipYoverride,-1
;   flipZoverride,1
;   toolheadOffsets,0,0|0,0|0,0|0,0|0,0|0,0
;   overrideFirmwareConfiguration,1
;   firmwareTypeOverride,RepRap (Marlin/Repetier/Sprinter)
;   GPXconfigOverride,r2
;   baudRateOverride,250000
;   overridePrinterModels,1
;   printerModelsOverride
;   startingGcode,G28 X0 Y0 Z0 ; home X, Y and Z axes,G29 ; probe Z
;   layerChangeGcode,
;   retractionGcode,
;   toolChangeGcode,
;   endingGcode,M104 S0 T0 ; turn off extruder,M140 S0 T1 ; turn off bed,G28 X0 ; home X axis,M84 ; disable motors
;   exportFileFormat,gcode
;   celebration,0
;   celebrationSong,Star Wars
;   postProcessing,
;   defaultSpeed,3000
;   outlineUnderspeed,0.5
;   solidInfillUnderspeed,0.8
;   supportUnderspeed,0.8
;   rapidXYspeed,3600
;   rapidZspeed,1000
;   minBridgingArea,50
;   bridgingExtraInflation,0
;   bridgingExtrusionMultiplier,1
;   bridgingSpeedMultiplier,1
;   useFixedBridgingAngle,0
;   fixedBridgingAngle,0
;   applyBridgingToPerimeters,0
;   filamentDiameters,1.75|1.75|1.75|1.75|1.75|1.75
;   filamentPricesPerKg,30|30|30|30|30|30
;   filamentDensities,1.25|1.25|1.25|1.25|1.25|1.25
;   useMinPrintHeight,0
;   minPrintHeight,0
;   useMaxPrintHeight,0
;   maxPrintHeight,0
;   useDiaphragm,0
;   diaphragmLayerInterval,20
;   robustSlicing,1
;   mergeAllIntoSolid,0
;   onlyRetractWhenCrossingOutline,1
;   retractBetweenLayers,0
;   useRetractionMinTravel,0
;   retractionMinTravel,3
;   retractWhileWiping,0
;   onlyWipeOutlines,1
;   avoidCrossingOutline,1
;   maxMovementDetourFactor,3
;   toolChangeRetractionDistance,12
;   toolChangeExtraRestartDistance,-0.5
;   toolChangeRetractionSpeed,600
;   externalThinWallType,0
;   internalThinWallType,2
;   thinWallAllowedOverlapPercentage,30
;   singleExtrusionMinLength,1
;   singleExtrusionMinPrintingWidthPercentage,50
;   singleExtrusionMaxPrintingWidthPercentage,200
;   singleExtrusionEndpointExtension,0.2
;   horizontalSizeCompensation,0
G90
M82
M106 S255
G4 P500
M106 S0
M140 S65
M190 S65
M104 S200 T0
M109 S200 T0
G28 X0 Y0 Z0 ; home X
 Y and Z axes
G29 ; probe Z
G92 E0
G1 E-1.0000 F1800
G1 Z0.180 F1000
; process Process1
; layer 1, Z = 0.180
T0
; tool H0.180 W0.480
; skirt
G1 X44.677 Y55.740 F3600
G1 E0.0000 F540
G92 E0
G1 X44.711 Y55.715 E0.0013 F1500
G1 X45.359 Y55.279 E0.0251
G1 X45.403 Y55.251 E0.0267
G1 X45.755 Y55.057 E0.0390
G1 X45.801 Y55.033 E0.0406
G1 X46.778 Y54.598 E0.0732
G1 X46.837 Y54.576 E0.0751
G1 X47.295 Y54.427 E0.0899
G1 X47.356 Y54.411 E0.0918
G1 X48.402 Y54.188 E0.1244
G1 X48.453 Y54.180 E0.1260
G1 X48.852 Y54.131 E0.1383
G1 X48.904 Y54.127 E0.1399
G1 X49.684 Y54.099 E0.1637
G1 X49.726 Y54.099 E0.1650
G1 X50.047 Y54.111 E0.1748
G1 X50.089 Y54.114 E0.1761
G1 X50.824 Y54.191 E0.1987
G1 X50.866 Y54.197 E0.1999
G1 X51.182 Y54.252 E0.2097
G1 X51.223 Y54.261 E0.2110
G1 X51.941 Y54.440 E0.2336
G1 X51.981 Y54.452 E0.2349
G1 X52.287 Y54.551 E0.2447
G1 X52.326 Y54.565 E0.2460
G1 X53.012 Y54.842 E0.2686
G1 X53.050 Y54.859 E0.2698
G1 X53.339 Y55.000 E0.2797
G1 X53.376 Y55.020 E0.2809
G1 X54.017 Y55.390 E0.3035
G1 X54.052 Y55.412 E0.3048
G1 X54.319 Y55.592 E0.3146
G1 X54.353 Y55.616 E0.3159
G1 X54.967 Y56.096 E0.3397
G1 X55.007 Y56.130 E0.3413
G1 X55.300 Y56.404 E0.3535
G1 X55.337 Y56.441 E0.3551
G1 X56.023 Y57.203 E0.3864
G1 X56.056 Y57.243 E0.3880
G1 X56.297 Y57.563 E0.4003
G1 X56.327 Y57.606 E0.4019
G1 X56.741 Y58.267 E0.4257
G1 X56.762 Y58.303 E0.4269
G1 X56.913 Y58.586 E0.4367
G1 X56.931 Y58.624 E0.4380
G1 X57.232 Y59.300 E0.4606
G1 X57.248 Y59.339 E0.4619
G1 X57.358 Y59.640 E0.4717
G1 X57.371 Y59.680 E0.4730
G1 X57.576 Y60.391 E0.4956
G1 X57.586 Y60.432 E0.4968
G1 X57.653 Y60.746 E0.5067
G1 X57.660 Y60.787 E0.5079
G1 X57.764 Y61.519 E0.5305
G1 X57.768 Y61.561 E0.5318
G1 X57.791 Y61.881 E0.5416
G1 X57.792 Y61.923 E0.5429
G1 X57.795 Y64.700 E0.6277
G1 X92.200 Y64.700 E1.6781
G1 X92.200 Y62.220 E1.7539
G1 X92.200 Y62.199 E1.7545
G1 X92.206 Y62.039 E1.7594
G1 X92.207 Y62.018 E1.7600
G1 X92.253 Y61.364 E1.7801
G1 X92.257 Y61.322 E1.7813
G1 X92.301 Y61.005 E1.7911
G1 X92.309 Y60.964 E1.7924
G1 X92.462 Y60.241 E1.8149
G1 X92.472 Y60.200 E1.8162
G1 X92.560 Y59.891 E1.8260
G1 X92.573 Y59.851 E1.8273
G1 X92.839 Y59.118 E1.8511
G1 X92.859 Y59.070 E1.8527
G1 X93.029 Y58.706 E1.8650
G1 X93.053 Y58.660 E1.8666
G1 X93.587 Y57.733 E1.8992
G1 X93.621 Y57.680 E1.9012
G1 X93.904 Y57.289 E1.9159
G1 X93.944 Y57.240 E1.9178
G1 X94.661 Y56.443 E1.9506
G1 X94.698 Y56.406 E1.9522
G1 X94.992 Y56.131 E1.9645
G1 X95.032 Y56.097 E1.9661
G1 X95.679 Y55.592 E1.9911
G1 X95.722 Y55.561 E1.9927
G1 X96.059 Y55.342 E2.0050
G1 X96.104 Y55.316 E2.0066
G1 X97.012 Y54.833 E2.0380
G1 X97.060 Y54.810 E2.0396
G1 X97.429 Y54.653 E2.0519
G1 X97.478 Y54.635 E2.0535
G1 X98.220 Y54.394 E2.0773
G1 X98.260 Y54.382 E2.0786
G1 X98.572 Y54.305 E2.0884
G1 X98.613 Y54.296 E2.0896
G1 X99.342 Y54.168 E2.1122
G1 X99.383 Y54.162 E2.1135
G1 X99.703 Y54.128 E2.1233
G1 X99.744 Y54.125 E2.1246
G1 X100.444 Y54.101 E2.1460
G1 X100.475 Y54.100 E2.1469
G1 X100.716 Y54.105 E2.1543
G1 X100.747 Y54.106 E2.1552
G1 X101.236 Y54.140 E2.1702
G1 X101.278 Y54.145 E2.1715
G1 X101.596 Y54.189 E2.1813
G1 X101.638 Y54.197 E2.1826
G1 X102.605 Y54.402 E2.2128
G1 X102.655 Y54.415 E2.2144
G1 X103.040 Y54.533 E2.2266
G1 X103.089 Y54.550 E2.2282
G1 X103.812 Y54.843 E2.2521
G1 X103.850 Y54.860 E2.2533
G1 X104.139 Y55.000 E2.2631
G1 X104.176 Y55.020 E2.2644
G1 X104.817 Y55.390 E2.2870
G1 X104.852 Y55.412 E2.2883
G1 X105.119 Y55.592 E2.2981
G1 X105.153 Y55.616 E2.2994
G1 X105.735 Y56.072 E2.3220
G1 X105.767 Y56.099 E2.3232
G1 X106.006 Y56.313 E2.3330
G1 X106.036 Y56.342 E2.3343
G1 X106.576 Y56.901 E2.3580
G1 X106.610 Y56.940 E2.3596
G1 X106.862 Y57.251 E2.3718
G1 X106.893 Y57.293 E2.3734
G1 X107.469 Y58.145 E2.4048
G1 X107.496 Y58.189 E2.4064
G1 X107.691 Y58.540 E2.4187
G1 X107.714 Y58.587 E2.4203
G1 X108.032 Y59.299 E2.4441
G1 X108.048 Y59.338 E2.4454
G1 X108.158 Y59.641 E2.4552
G1 X108.171 Y59.681 E2.4565
G1 X108.376 Y60.392 E2.4791
G1 X108.386 Y60.432 E2.4803
G1 X108.453 Y60.746 E2.4901
G1 X108.460 Y60.787 E2.4914
G1 X108.564 Y61.520 E2.5140
G1 X108.568 Y61.562 E2.5153
G1 X108.591 Y61.883 E2.5251
G1 X108.592 Y61.925 E2.5264
G1 X108.600 Y87.819 E3.3170
G1 X108.599 Y87.850 E3.3180
G1 X108.587 Y88.091 E3.3254
G1 X108.584 Y88.123 E3.3263
G1 X108.486 Y89.063 E3.3552
G1 X108.478 Y89.114 E3.3568
G1 X108.402 Y89.507 E3.3690
G1 X108.390 Y89.558 E3.3706
G1 X108.176 Y90.307 E3.3944
G1 X108.163 Y90.347 E3.3956
G1 X108.053 Y90.650 E3.4055
G1 X108.037 Y90.689 E3.4068
G1 X107.737 Y91.365 E3.4294
G1 X107.718 Y91.402 E3.4306
G1 X107.568 Y91.685 E3.4404
G1 X107.547 Y91.721 E3.4417
G1 X107.156 Y92.349 E3.4643
G1 X107.132 Y92.384 E3.4656
G1 X106.943 Y92.645 E3.4754
G1 X106.917 Y92.678 E3.4767
G1 X106.442 Y93.245 E3.4993
G1 X106.414 Y93.277 E3.5006
G1 X106.191 Y93.508 E3.5104
G1 X106.160 Y93.537 E3.5117
G1 X105.609 Y94.034 E3.5343
G1 X105.577 Y94.061 E3.5356
G1 X105.323 Y94.260 E3.5455
G1 X105.289 Y94.285 E3.5467
G1 X104.675 Y94.699 E3.5693
G1 X104.639 Y94.721 E3.5706
G1 X104.361 Y94.882 E3.5804
G1 X104.324 Y94.901 E3.5817
G1 X103.659 Y95.226 E3.6043
G1 X103.621 Y95.243 E3.6056
G1 X103.323 Y95.363 E3.6154
G1 X103.283 Y95.377 E3.6167
G1 X102.580 Y95.606 E3.6393
G1 X102.540 Y95.618 E3.6405
G1 X102.228 Y95.695 E3.6504
G1 X102.187 Y95.704 E3.6516
G1 X101.459 Y95.832 E3.6742
G1 X101.417 Y95.838 E3.6755
G1 X101.097 Y95.872 E3.6853
G1 X101.056 Y95.875 E3.6866
G1 X100.316 Y95.901 E3.7092
G1 X100.274 Y95.901 E3.7105
G1 X99.953 Y95.889 E3.7203
G1 X99.911 Y95.886 E3.7216
G1 X99.175 Y95.809 E3.7441
G1 X99.134 Y95.803 E3.7454
G1 X98.818 Y95.748 E3.7552
G1 X98.777 Y95.739 E3.7565
G1 X98.060 Y95.560 E3.7791
G1 X98.019 Y95.548 E3.7804
G1 X97.713 Y95.449 E3.7902
G1 X97.674 Y95.435 E3.7915
G1 X96.988 Y95.157 E3.8141
G1 X96.949 Y95.140 E3.8153
G1 X96.661 Y95.000 E3.8251
G1 X96.624 Y94.980 E3.8264
G1 X95.983 Y94.610 E3.8490
G1 X95.948 Y94.588 E3.8503
G1 X95.681 Y94.408 E3.8601
G1 X95.647 Y94.383 E3.8614
G1 X95.065 Y93.928 E3.8840
G1 X95.033 Y93.901 E3.8852
G1 X94.794 Y93.687 E3.8950
G1 X94.764 Y93.658 E3.8963
G1 X94.253 Y93.128 E3.9188
G1 X94.225 Y93.097 E3.9201
G1 X94.019 Y92.852 E3.9298
G1 X93.993 Y92.819 E3.9311
G1 X93.535 Y92.189 E3.9549
G1 X93.506 Y92.146 E3.9565
G1 X93.299 Y91.802 E3.9687
G1 X93.274 Y91.756 E3.9703
G1 X92.822 Y90.831 E4.0018
G1 X92.801 Y90.783 E4.0034
G1 X92.656 Y90.408 E4.0156
G1 X92.640 Y90.358 E4.0172
G1 X92.424 Y89.608 E4.0411
G1 X92.414 Y89.568 E4.0423
G1 X92.347 Y89.254 E4.0521
G1 X92.340 Y89.213 E4.0534
G1 X92.236 Y88.481 E4.0760
G1 X92.232 Y88.439 E4.0773
G1 X92.209 Y88.119 E4.0871
G1 X92.208 Y88.077 E4.0883
G1 X92.205 Y85.300 E4.1731
G1 X57.800 Y85.300 E5.2236
G1 X57.800 Y87.820 E5.3006
G1 X57.799 Y87.851 E5.3015
G1 X57.787 Y88.091 E5.3089
G1 X57.784 Y88.123 E5.3098
G1 X57.686 Y89.063 E5.3387
G1 X57.678 Y89.114 E5.3403
G1 X57.602 Y89.507 E5.3525
G1 X57.590 Y89.558 E5.3541
G1 X57.364 Y90.346 E5.3791
G1 X57.348 Y90.396 E5.3807
G1 X57.204 Y90.771 E5.3930
G1 X57.183 Y90.819 E5.3946
G1 X56.715 Y91.780 E5.4272
G1 X56.685 Y91.835 E5.4291
G1 X56.430 Y92.244 E5.4439
G1 X56.394 Y92.296 E5.4458
G1 X55.761 Y93.107 E5.4772
G1 X55.734 Y93.139 E5.4785
G1 X55.519 Y93.379 E5.4883
G1 X55.490 Y93.409 E5.4896
G1 X55.106 Y93.780 E5.5059
G1 X55.075 Y93.808 E5.5072
G1 X54.828 Y94.015 E5.5170
G1 X54.795 Y94.041 E5.5183
G1 X53.994 Y94.623 E5.5485
G1 X53.951 Y94.652 E5.5501
G1 X53.606 Y94.859 E5.5624
G1 X53.560 Y94.884 E5.5640
G1 X52.859 Y95.226 E5.5878
G1 X52.821 Y95.243 E5.5891
G1 X52.523 Y95.363 E5.5989
G1 X52.483 Y95.378 E5.6002
G1 X51.780 Y95.606 E5.6227
G1 X51.739 Y95.618 E5.6240
G1 X51.428 Y95.695 E5.6338
G1 X51.387 Y95.704 E5.6351
G1 X50.659 Y95.832 E5.6577
G1 X50.617 Y95.838 E5.6590
G1 X50.297 Y95.872 E5.6688
G1 X50.256 Y95.875 E5.6701
G1 X49.476 Y95.902 E5.6939
G1 X49.424 Y95.902 E5.6955
G1 X49.022 Y95.881 E5.7077
G1 X48.970 Y95.876 E5.7093
G1 X47.912 Y95.727 E5.7420
G1 X47.850 Y95.715 E5.7439
G1 X47.382 Y95.598 E5.7586
G1 X47.322 Y95.580 E5.7605
G1 X46.318 Y95.214 E5.7932
G1 X46.269 Y95.194 E5.7948
G1 X45.905 Y95.024 E5.8070
G1 X45.859 Y95.000 E5.8086
G1 X45.183 Y94.610 E5.8325
G1 X45.148 Y94.588 E5.8337
G1 X44.881 Y94.408 E5.8436
G1 X44.847 Y94.383 E5.8448
G1 X44.265 Y93.928 E5.8674
G1 X44.233 Y93.901 E5.8687
G1 X43.995 Y93.687 E5.8785
G1 X43.964 Y93.658 E5.8797
G1 X43.453 Y93.128 E5.9022
G1 X43.425 Y93.097 E5.9035
G1 X43.219 Y92.852 E5.9133
G1 X43.193 Y92.819 E5.9146
G1 X42.735 Y92.189 E5.9383
G1 X42.706 Y92.146 E5.9399
G1 X42.498 Y91.801 E5.9522
G1 X42.473 Y91.755 E5.9538
G1 X42.022 Y90.831 E5.9852
G1 X42.001 Y90.783 E5.9868
G1 X41.856 Y90.408 E5.9991
G1 X41.840 Y90.358 E6.0007
G1 X41.624 Y89.609 E6.0245
G1 X41.614 Y89.568 E6.0258
G1 X41.547 Y89.254 E6.0356
G1 X41.540 Y89.213 E6.0369
G1 X41.436 Y88.480 E6.0595
G1 X41.432 Y88.438 E6.0608
G1 X41.409 Y88.115 E6.0706
G1 X41.408 Y88.073 E6.0719
G1 X41.407 Y61.938 E6.8699
G1 X41.408 Y61.897 E6.8711
G1 X41.430 Y61.581 E6.8808
G1 X41.435 Y61.539 E6.8821
G1 X41.537 Y60.804 E6.9048
G1 X41.544 Y60.762 E6.9061
G1 X41.611 Y60.446 E6.9159
G1 X41.621 Y60.405 E6.9172
G1 X41.825 Y59.692 E6.9399
G1 X41.838 Y59.652 E6.9411
G1 X41.947 Y59.350 E6.9509
G1 X41.963 Y59.312 E6.9522
G1 X42.263 Y58.636 E6.9748
G1 X42.282 Y58.598 E6.9761
G1 X42.432 Y58.314 E6.9859
G1 X42.453 Y58.278 E6.9872
G1 X42.845 Y57.650 E7.0098
G1 X42.868 Y57.615 E7.0110
G1 X43.057 Y57.355 E7.0209
G1 X43.082 Y57.322 E7.0221
G1 X43.558 Y56.755 E7.0447
G1 X43.586 Y56.724 E7.0460
G1 X43.809 Y56.492 E7.0558
G1 X43.839 Y56.463 E7.0571
G1 X44.391 Y55.966 E7.0798
G1 X44.423 Y55.939 E7.0811
G1 X44.677 Y55.740 E7.0909
G1 X44.966 Y56.123 F3600
G92 E0
G1 X44.987 Y56.108 E0.0008 F1500
G1 X45.618 Y55.682 E0.0240
G1 X45.645 Y55.666 E0.0250
G1 X45.978 Y55.481 E0.0366
G1 X46.006 Y55.467 E0.0376
G1 X46.962 Y55.042 E0.0695
G1 X46.997 Y55.028 E0.0707
G1 X47.432 Y54.887 E0.0846
G1 X47.468 Y54.877 E0.0858
G1 X48.491 Y54.660 E0.1177
G1 X48.522 Y54.655 E0.1187
G1 X48.900 Y54.608 E0.1303
G1 X48.931 Y54.606 E0.1313
G1 X49.692 Y54.579 E0.1545
G1 X49.717 Y54.579 E0.1553
G1 X50.022 Y54.590 E0.1646
G1 X50.047 Y54.592 E0.1653
G1 X50.766 Y54.667 E0.1874
G1 X50.791 Y54.671 E0.1882
G1 X51.090 Y54.724 E0.1975
G1 X51.115 Y54.729 E0.1982
G1 X51.817 Y54.904 E0.2203
G1 X51.841 Y54.911 E0.2211
G1 X52.130 Y55.005 E0.2304
G1 X52.154 Y55.013 E0.2311
G1 X52.824 Y55.284 E0.2532
G1 X52.847 Y55.295 E0.2540
G1 X53.121 Y55.428 E0.2633
G1 X53.143 Y55.440 E0.2640
G1 X53.769 Y55.801 E0.2861
